#CXRLE Pos=-2246,-98
x = 2994, y = 257, rule = B3/S23
2187b2ob2ob2ob2ob2ob2ob2ob2ob2ob2ob2ob2ob2ob2ob2ob2ob2ob2ob2ob2ob2ob2o
b2ob2ob2ob2ob2ob2ob2ob2ob2ob2ob2ob2ob2ob2ob2ob2ob2ob2ob2ob2ob2ob2ob2ob
2ob2ob2ob2ob2ob2ob2ob2ob2ob2ob2ob2ob2ob2ob2ob2ob2ob2ob2ob2ob2ob2ob2ob
2ob2ob2ob2ob2ob2ob2ob2ob2ob2o$2187b2ob2ob2ob2ob2ob2ob2ob2ob2ob2ob2ob2o
b2ob2ob2ob2ob2ob2ob2ob2ob2ob2ob2ob2ob2ob2ob2ob2ob2ob2ob2ob2ob2ob2ob2ob
2ob2ob2ob2ob2ob2ob2ob2ob2ob2ob2ob2ob2ob2ob2ob2ob2ob2ob2ob2ob2ob2ob2ob
2ob2ob2ob2ob2ob2ob2ob2ob2ob2ob2ob2ob2ob2ob2ob2ob2ob2ob2ob2o2$2184b2o$
2184b2o232b2ob2ob2o$2418b2ob2ob2o$2184b2o$2184b2o$2424b2ob2ob2o$2184b
2o238b2ob2ob2o$2184b2o2$2184b2o244b2ob2ob2o$2184b2o244b2ob2ob2o2$2184b
2o$2184b2o250b2ob2ob2o$2436b2ob2ob2o$2184b2o$2184b2o$2442b2ob2ob2o$
2184b2o256b2ob2ob2o$2184b2o2$2184b2o262b2ob2ob2o$2184b2o262b2ob2ob2o2$
2184b2o$2184b2o268b2ob2ob2o$2454b2ob2ob2o$2184b2o$2184b2o$2460b2ob2ob
2o$2184b2o274b2ob2ob2o$2184b2o2$2184b2o126b2o152b2ob2ob2o$2184b2o126b
2o152b2ob2ob2o2$2184b2o$2184b2o129bo156b2ob2ob2o$2314bo157b2ob2ob2o$
2184b2o128bo$2184b2o$2478b2ob2ob2o$2184b2o124b2o3b2o161b2ob2ob2o$2184b
2o127bo$2310bo5bo$2184b2o125b2ob2o168b2ob2ob2o$2184b2o126bobo9b2o158b
2ob2ob2o$2313bo9bobo$2184b2o127bo8b3o4b2ob3o$2184b2o135b3o4bo2b4o155b
2ob2o2b2o$2322b3o4b2o159b2ob2o2b2o$2184b2o137bobo$2184b2o138b2o171b2o$
2497b2o$2184b2o120b2o$2184b2o119bobo189b2o2b2o$2307bo189b2o2b2o$2184b
2o$2184b2o315b2o$2501b2o$2184b2o$2184b2o315b2o2b2o$2501b2o2b2o$2184b2o
$2184b2o319b2o$2505b2o$2184b2o$2184b2o319b2o2b2o$2505b2o2b2o$2184b2o
105b2o$2184b2o104bobo216b2o$2292bo16bobo197b2o$2184b2o126bo$2184b2o7b
2o117bo196b2o2b2o$2194bo114bo2bo196b2o2b2o$2184b2o8bobo113b3o$2184b2o
9b2o316b2o$2513b2o$2184b2o$2184b2o327b2o2b2o$2513b2o2b2o$2184b2o66bob
2o4bo$2184b2o66b2obo3bobo255b2o$2259bobo255b2o$2184b2o64b5o3b2ob3o12b
2o$2184b2o63bo2bo2bo8bo10bobo239b2o2b2o$2249b2o3b2o2b2ob3o13bo239b2o2b
2o$722b2ob2ob2ob2ob2ob2ob2ob2ob2ob2ob2ob2ob2ob2ob2ob2ob2ob2ob2ob2ob2ob
2ob2ob2ob2ob2ob2ob2ob2ob2ob2ob2ob2ob2ob2ob2ob2ob2ob2ob2ob2ob2ob2ob2ob
2ob2ob2ob2ob2ob2ob2ob2ob2ob2ob2ob2ob2ob2ob2ob2ob2ob2ob2ob2ob2ob2ob2ob
2ob2ob2ob2ob2ob2ob2ob2ob2ob2ob2ob2ob2ob2ob2ob2ob2ob2ob2ob2ob2ob2ob2ob
2ob2ob2ob2ob2ob2ob2ob2ob2ob2ob2ob2ob2ob2ob2ob2ob2ob2ob2ob2ob2ob2ob2ob
2ob2ob2ob2ob2ob2ob2ob2ob2ob2ob2ob2ob2ob2ob2ob2ob2ob2ob2ob2ob2ob2ob2ob
2ob2ob2ob2ob2ob2ob2ob2ob2ob2ob2ob2ob2ob2ob2ob2ob2ob2ob2ob2ob2ob2ob2ob
2ob2ob2ob2ob2ob2ob2ob2ob2ob2ob2ob2ob2ob2ob2ob2ob2ob2ob2ob2ob2ob2ob2ob
2ob2ob2ob2ob2ob2ob2ob2ob2ob2ob2ob2ob2ob2ob2ob2ob2ob2ob2ob2ob2ob2ob2ob
2ob2ob2ob2ob2ob2ob2ob2ob2ob2ob2ob2ob2ob2ob2ob2ob2ob2ob2ob2ob2ob2ob2ob
2ob2ob2ob2ob2ob2ob2ob2ob2ob2ob2ob2ob2ob2ob2ob2ob2ob2ob2ob2ob2ob2ob2ob
2ob2ob2ob2ob2ob2ob2ob2ob2ob2ob2ob2ob2ob2ob2ob2ob2ob2ob2ob2ob2ob2ob2ob
2ob2ob2ob2ob2ob2ob2ob2ob2ob2ob2ob2ob2ob2ob2ob2ob2ob2ob2ob2ob2ob2ob2ob
2ob2ob2ob2ob2ob2ob2ob2ob2ob2ob2ob2ob2ob2ob2ob2ob2ob2ob2ob2ob2ob2ob2ob
2ob2ob2ob2ob2ob2ob2ob2ob2ob2ob2ob2ob2ob2ob2ob2ob2ob2ob2ob2ob2ob2ob2ob
2ob2ob2ob2ob2ob2ob2ob2ob2ob2ob2ob2ob2ob2ob2ob2ob2ob2ob2ob2ob2ob2ob2ob
2ob2ob2ob2ob2ob2ob2ob2ob2ob2ob2ob2ob2ob2ob2ob2ob2ob2ob2ob2ob2ob2ob2ob
2ob2ob2ob2ob2ob2ob2ob2ob2ob2ob2ob2ob2ob2ob2ob2ob2ob2ob2ob2ob2ob2ob2ob
2ob2ob2ob2ob2ob2ob2ob2ob2ob2ob2ob2ob2ob2ob2ob2ob2ob2ob2ob2ob2ob2ob2ob
2ob2ob2ob2ob2ob2ob2ob2ob2ob2ob2ob2ob2ob2ob2ob2ob2ob2ob2ob2ob2ob2ob2ob
2ob2ob2ob2ob2ob2ob2ob2ob2ob2ob2ob2ob2ob2ob2ob2ob2ob2ob2ob2ob2ob2ob2ob
2ob2ob2ob2ob2ob2o2b2o72b2obo$722b2ob2ob2ob2ob2ob2ob2ob2ob2ob2ob2ob2ob
2ob2ob2ob2ob2ob2ob2ob2ob2ob2ob2ob2ob2ob2ob2ob2ob2ob2ob2ob2ob2ob2ob2ob
2ob2ob2ob2ob2ob2ob2ob2ob2ob2ob2ob2ob2ob2ob2ob2ob2ob2ob2ob2ob2ob2ob2ob
2ob2ob2ob2ob2ob2ob2ob2ob2ob2ob2ob2ob2ob2ob2ob2ob2ob2ob2ob2ob2ob2ob2ob
2ob2ob2ob2ob2ob2ob2ob2ob2ob2ob2ob2ob2ob2ob2ob2ob2ob2ob2ob2ob2ob2ob2ob
2ob2ob2ob2ob2ob2ob2ob2ob2ob2ob2ob2ob2ob2ob2ob2ob2ob2ob2ob2ob2ob2ob2ob
2ob2ob2ob2ob2ob2ob2ob2ob2ob2ob2ob2ob2ob2ob2ob2ob2ob2ob2ob2ob2ob2ob2ob
2ob2ob2ob2ob2ob2ob2ob2ob2ob2ob2ob2ob2ob2ob2ob2ob2ob2ob2ob2ob2ob2ob2ob
2ob2ob2ob2ob2ob2ob2ob2ob2ob2ob2ob2ob2ob2ob2ob2ob2ob2ob2ob2ob2ob2ob2ob
2ob2ob2ob2ob2ob2ob2ob2ob2ob2ob2ob2ob2ob2ob2ob2ob2ob2ob2ob2ob2ob2ob2ob
2ob2ob2ob2ob2ob2ob2ob2ob2ob2ob2ob2ob2ob2ob2ob2ob2ob2ob2ob2ob2ob2ob2ob
2ob2ob2ob2ob2ob2ob2ob2ob2ob2ob2ob2ob2ob2ob2ob2ob2ob2ob2ob2ob2ob2ob2ob
2ob2ob2ob2ob2ob2ob2ob2ob2ob2ob2ob2ob2ob2ob2ob2ob2ob2ob2ob2ob2ob2ob2ob
2ob2ob2ob2ob2ob2ob2ob2ob2ob2ob2ob2ob2ob2ob2ob2ob2ob2ob2ob2ob2ob2ob2ob
2ob2ob2ob2ob2ob2ob2ob2ob2ob2ob2ob2ob2ob2ob2ob2ob2ob2ob2ob2ob2ob2ob2ob
2ob2ob2ob2ob2ob2ob2ob2ob2ob2ob2ob2ob2ob2ob2ob2ob2ob2ob2ob2ob2ob2ob2ob
2ob2ob2ob2ob2ob2ob2ob2ob2ob2ob2ob2ob2ob2ob2ob2ob2ob2ob2ob2ob2ob2ob2ob
2ob2ob2ob2ob2ob2ob2ob2ob2ob2ob2ob2ob2ob2ob2ob2ob2ob2ob2ob2ob2ob2ob2ob
2ob2ob2ob2ob2ob2ob2ob2ob2ob2ob2ob2ob2ob2ob2ob2ob2ob2ob2ob2ob2ob2ob2ob
2ob2ob2ob2ob2ob2ob2ob2ob2ob2ob2ob2ob2ob2ob2ob2ob2ob2ob2ob2ob2ob2ob2ob
2ob2ob2ob2ob2ob2ob2ob2ob2ob2ob2ob2ob2ob2ob2ob2ob2ob2ob2ob2ob2ob2ob2ob
2ob2ob2ob2ob2ob2ob2ob2ob2ob2ob2ob2ob2ob2ob2o2b2o79bo255b2o$2263b3o255b
2o$2262bo$727bo2bo26bo2bo26bo2bo26bo2bo26bo2bo26bo2bo26bo2bo26bo2bo26b
o2bo26bo2bo26bo2bo26bo2bo26bo2bo26bo2bo26bo2bo26bo2bo26bo2bo26bo2bo26b
o2bo26bo2bo26bo2bo26bo2bo26bo2bo26bo2bo26bo2bo26bo2bo26bo2bo26bo2bo26b
o2bo26bo2bo26bo2bo26bo2bo26bo2bo26bo2bo26bo2bo26bo2bo26bo2bo26bo2bo26b
o2bo26bo2bo26bo2bo26bo2bo26bo2bo26bo2bo26bo2bo26bo2bo26bo2bo26bo2bo26b
o2bo26bo2bo26bo2bo31b2o257b2o$731bo29bo29bo29bo29bo29bo29bo29bo29bo29b
o29bo29bo29bo29bo29bo29bo29bo29bo29bo29bo29bo29bo29bo29bo29bo29bo29bo
29bo29bo29bo29bo29bo29bo29bo29bo29bo29bo29bo29bo29bo29bo29bo29bo29bo
29bo29bo29bo29bo29bo29bo29bo289b2o$727bo3bo25bo3bo25bo3bo25bo3bo25bo3b
o25bo3bo25bo3bo25bo3bo25bo3bo25bo3bo25bo3bo25bo3bo25bo3bo25bo3bo25bo3b
o25bo3bo25bo3bo25bo3bo25bo3bo25bo3bo25bo3bo25bo3bo25bo3bo25bo3bo25bo3b
o25bo3bo25bo3bo25bo3bo25bo3bo25bo3bo25bo3bo25bo3bo25bo3bo25bo3bo25bo3b
o25bo3bo25bo3bo25bo3bo25bo3bo25bo3bo25bo3bo25bo3bo25bo3bo25bo3bo25bo3b
o25bo3bo25bo3bo25bo3bo25bo3bo25bo3bo25bo3bo71b2o15bo$728b4o26b4o26b4o
26b4o26b4o26b4o26b4o26b4o26b4o26b4o26b4o26b4o26b4o26b4o26b4o26b4o26b4o
26b4o26b4o26b4o26b4o26b4o26b4o26b4o26b4o26b4o26b4o26b4o26b4o26b4o26b4o
26b4o26b4o26b4o26b4o26b4o26b4o26b4o26b4o26b4o26b4o26b4o26b4o26b4o26b4o
26b4o26b4o26b4o26b4o26b4o26b4o28bo41bobo13b3o200b2o2b2o$2259bobo40bo
14bo203b2o2b2o$2258b2ob2o36b2ob2o13b2o$2258bo2bo38bobo222b2o$722b2ob2o
b2ob2ob2ob2ob2ob2ob2ob2ob2ob2ob2ob2ob2ob2ob2ob2ob2ob2ob2ob2ob2ob2ob2ob
2ob2ob2ob2ob2ob2ob2ob2ob2ob2ob2ob2ob2ob2ob2ob2ob2ob2ob2ob2ob2ob2ob2ob
2ob2ob2ob2ob2ob2ob2ob2ob2ob2ob2ob2ob2ob2ob2ob2ob2ob2ob2ob2ob2ob2ob2ob
2ob2ob2ob2ob2ob2ob2ob2ob2ob2ob2ob2ob2ob2ob2ob2ob2ob2ob2ob2ob2ob2ob2ob
2ob2ob2ob2ob2ob2ob2ob2ob2ob2ob2ob2ob2ob2ob2ob2ob2ob2ob2ob2ob2ob2ob2ob
2ob2ob2ob2ob2ob2ob2ob2ob2ob2ob2ob2ob2ob2ob2ob2ob2ob2ob2ob2ob2ob2ob2ob
2ob2ob2ob2ob2ob2ob2ob2ob2ob2ob2ob2ob2ob2ob2ob2ob2ob2ob2ob2ob2ob2ob2ob
2ob2ob2ob2ob2ob2ob2ob2ob2ob2ob2ob2ob2ob2ob2ob2ob2ob2ob2ob2ob2ob2ob2ob
2ob2ob2ob2ob2ob2ob2ob2ob2ob2ob2ob2ob2ob2ob2ob2ob2ob2ob2ob2ob2ob2ob2ob
2ob2ob2ob2ob2ob2ob2ob2ob2ob2ob2ob2ob2ob2ob2ob2ob2ob2ob2ob2ob2ob2ob2ob
2ob2ob2ob2ob2ob2ob2ob2ob2ob2ob2ob2ob2ob2ob2ob2ob2ob2ob2ob2ob2ob2ob2ob
2ob2ob2ob2ob2ob2ob2ob2ob2ob2ob2ob2ob2ob2ob2ob2ob2ob2ob2ob2ob2ob2ob2ob
2ob2ob2ob2ob2ob2ob2ob2ob2ob2ob2ob2ob2ob2ob2ob2ob2ob2ob2ob2ob2ob2ob2ob
2ob2ob2ob2ob2ob2ob2ob2ob2ob2ob2ob2ob2ob2ob2ob2ob2ob2ob2ob2ob2ob2ob2ob
2ob2ob2ob2ob2ob2ob2ob2ob2ob2ob2ob2ob2ob2ob2ob2ob2ob2ob2ob2ob2ob2ob2ob
2ob2ob2ob2ob2ob2ob2ob2ob2ob2ob2ob2ob2ob2ob2ob2ob2ob2ob2ob2ob2ob2ob2ob
2ob2ob2ob2ob2ob2ob2ob2ob2ob2ob2ob2ob2ob2ob2ob2ob2ob2ob2ob2ob2ob2ob2ob
2ob2ob2ob2ob2ob2ob2ob2ob2ob2ob2ob2ob2ob2ob2ob2ob2ob2ob2ob2ob2ob2ob2ob
2ob2ob2ob2ob2ob2ob2ob2ob2ob2ob2ob2ob2ob2ob2ob2ob2ob2ob2ob2ob2ob2ob2ob
2ob2ob2ob2ob2ob2ob2ob2ob2ob2ob2ob2ob2ob2ob2ob2ob2ob2ob2ob2ob2ob2ob2ob
2ob2ob2ob2ob2ob2ob2ob2ob2ob2ob2ob2ob2ob2ob2ob2ob2ob2ob2ob2ob2ob2ob2ob
2ob2o77b2o38bo2bobo220b2o$722b2ob2ob2ob2ob2ob2ob2ob2ob2ob2ob2ob2ob2ob
2ob2ob2ob2ob2ob2ob2ob2ob2ob2ob2ob2ob2ob2ob2ob2ob2ob2ob2ob2ob2ob2ob2ob
2ob2ob2ob2ob2ob2ob2ob2ob2ob2ob2ob2ob2ob2ob2ob2ob2ob2ob2ob2ob2ob2ob2ob
2ob2ob2ob2ob2ob2ob2ob2ob2ob2ob2ob2ob2ob2ob2ob2ob2ob2ob2ob2ob2ob2ob2ob
2ob2ob2ob2ob2ob2ob2ob2ob2ob2ob2ob2ob2ob2ob2ob2ob2ob2ob2ob2ob2ob2ob2ob
2ob2ob2ob2ob2ob2ob2ob2ob2ob2ob2ob2ob2ob2ob2ob2ob2ob2ob2ob2ob2ob2ob2ob
2ob2ob2ob2ob2ob2ob2ob2ob2ob2ob2ob2ob2ob2ob2ob2ob2ob2ob2ob2ob2ob2ob2ob
2ob2ob2ob2ob2ob2ob2ob2ob2ob2ob2ob2ob2ob2ob2ob2ob2ob2ob2ob2ob2ob2ob2ob
2ob2ob2ob2ob2ob2ob2ob2ob2ob2ob2ob2ob2ob2ob2ob2ob2ob2ob2ob2ob2ob2ob2ob
2ob2ob2ob2ob2ob2ob2ob2ob2ob2ob2ob2ob2ob2ob2ob2ob2ob2ob2ob2ob2ob2ob2ob
2ob2ob2ob2ob2ob2ob2ob2ob2ob2ob2ob2ob2ob2ob2ob2ob2ob2ob2ob2ob2ob2ob2ob
2ob2ob2ob2ob2ob2ob2ob2ob2ob2ob2ob2ob2ob2ob2ob2ob2ob2ob2ob2ob2ob2ob2ob
2ob2ob2ob2ob2ob2ob2ob2ob2ob2ob2ob2ob2ob2ob2ob2ob2ob2ob2ob2ob2ob2ob2ob
2ob2ob2ob2ob2ob2ob2ob2ob2ob2ob2ob2ob2ob2ob2ob2ob2ob2ob2ob2ob2ob2ob2ob
2ob2ob2ob2ob2ob2ob2ob2ob2ob2ob2ob2ob2ob2ob2ob2ob2ob2ob2ob2ob2ob2ob2ob
2ob2ob2ob2ob2ob2ob2ob2ob2ob2ob2ob2ob2ob2ob2ob2ob2ob2ob2ob2ob2ob2ob2ob
2ob2ob2ob2ob2ob2ob2ob2ob2ob2ob2ob2ob2ob2ob2ob2ob2ob2ob2ob2ob2ob2ob2ob
2ob2ob2ob2ob2ob2ob2ob2ob2ob2ob2ob2ob2ob2ob2ob2ob2ob2ob2ob2ob2ob2ob2ob
2ob2ob2ob2ob2ob2ob2ob2ob2ob2ob2ob2ob2ob2ob2ob2ob2ob2ob2ob2ob2ob2ob2ob
2ob2ob2ob2ob2ob2ob2ob2ob2ob2ob2ob2ob2ob2ob2ob2ob2ob2ob2ob2ob2ob2ob2ob
2ob2ob2ob2ob2ob2ob2ob2ob2ob2ob2ob2ob2ob2ob2ob2ob2ob2ob2ob2ob2ob2ob2ob
2ob2ob2ob2ob2ob2ob2ob2ob2ob2ob2ob2ob2ob2o2b2o65b2o46b2o2b2o$2184b2o64b
obo272b2o$2250bo274b2o$2184b2o63b2o51bob2o8b2o$2184b2o76b2o36b3ob2o7b
2obo208b2o2b2o$2262bo36bo12bo3bo208b2o2b2o$2184b2o77b3o34b3ob2o7b3o$
2184b2o79bo36bobo3b2o4bo6b2o206b2o$2302bobo2bobo11bobo205b2o$2184b2o
117bo3bo15bo$2184b2o120b2o15b2o204b2o$2529b2o$2184b2o$2184b2o343b2o$
2529b2o$2184b2o49b2o$2184b2o49bobo291b2o$2235bo293b2o$2184b2o$2184b2o$
2303bo226b2ob2ob2ob2ob2ob2ob2ob2ob2ob2ob2ob2ob2ob2ob2ob2ob2ob2ob2ob2ob
2ob2ob2ob2ob2ob2ob2ob2ob2ob2ob2ob2ob2ob2ob2ob2ob2ob2ob2ob2ob2ob2ob2ob
2ob2ob2ob2ob2ob2ob2ob2ob2ob2ob2ob2ob2ob2ob2ob2ob2ob2ob2ob2ob2ob2ob2ob
2ob2ob2ob2ob2ob2ob2ob2ob2ob2ob2ob2ob2ob2ob2ob2ob2ob2ob2ob2ob2ob2ob2ob
2ob2ob2ob2ob2ob2ob2ob2ob2ob2ob2ob2ob2ob2ob2ob2ob2ob2ob2ob2ob2ob2ob2ob
2ob2ob2ob2ob2ob2ob2ob2ob2ob2ob2ob2ob2ob2ob2ob2ob2ob2ob2ob2ob2ob2ob2ob
2ob2ob2ob2ob2ob2ob2ob2ob2ob2ob2ob2ob2ob2ob2ob2ob2ob2ob2ob2o$2184b2o
116bo227b2ob2ob2ob2ob2ob2ob2ob2ob2ob2ob2ob2ob2ob2ob2ob2ob2ob2ob2ob2ob
2ob2ob2ob2ob2ob2ob2ob2ob2ob2ob2ob2ob2ob2ob2ob2ob2ob2ob2ob2ob2ob2ob2ob
2ob2ob2ob2ob2ob2ob2ob2ob2ob2ob2ob2ob2ob2ob2ob2ob2ob2ob2ob2ob2ob2ob2ob
2ob2ob2ob2ob2ob2ob2ob2ob2ob2ob2ob2ob2ob2ob2ob2ob2ob2ob2ob2ob2ob2ob2ob
2ob2ob2ob2ob2ob2ob2ob2ob2ob2ob2ob2ob2ob2ob2ob2ob2ob2ob2ob2ob2ob2ob2ob
2ob2ob2ob2ob2ob2ob2ob2ob2ob2ob2ob2ob2ob2ob2ob2ob2ob2ob2ob2ob2ob2ob2ob
2ob2ob2ob2ob2ob2ob2ob2ob2ob2ob2ob2ob2ob2ob2ob2ob2ob2ob2ob2o$2184b2o
116b3o2$2184b2o133bo2bo26bo2bo26bo2bo26bo2bo26bo2bo26bo2bo26bo2bo26bo
2bo26bo2bo26bo2bo26bo2bo26bo2bo26bo2bo26bo2bo26bo2bo26bo2bo26bo2bo26bo
2bo26bo2bo26bo2bo26bo2bo26bo2bo26bo2bo$2184b2o104bobo30bo29bo29bo29bo
29bo29bo29bo29bo29bo29bo29bo29bo29bo29bo29bo29bo29bo29bo29bo29bo29bo
29bo29bo$2223b3o64bo2bo25bo3bo25bo3bo25bo3bo25bo3bo25bo3bo25bo3bo25bo
3bo25bo3bo25bo3bo25bo3bo25bo3bo25bo3bo25bo3bo25bo3bo25bo3bo25bo3bo25bo
3bo25bo3bo25bo3bo25bo3bo25bo3bo25bo3bo25bo3bo$2184b2o37bo2bo54b2o10b2o
25b4o26b4o26b4o26b4o26b4o26b4o26b4o26b4o26b4o26b4o26b4o26b4o26b4o26b4o
26b4o26b4o26b4o26b4o26b4o26b4o26b4o26b4o26b4o$2184b2o37bo57b2o8bo3b2o$
2223bo62b2o5b2o$2184b2o38bobo23b2o33bo4bo2bo$2184b2o64bobo37bobo237b2o
b2ob2ob2ob2ob2ob2ob2ob2ob2ob2ob2ob2ob2ob2ob2ob2ob2ob2ob2ob2ob2ob2ob2ob
2ob2ob2ob2ob2ob2ob2ob2ob2ob2ob2ob2ob2ob2ob2ob2ob2ob2ob2ob2ob2ob2ob2ob
2ob2ob2ob2ob2ob2ob2ob2ob2ob2ob2ob2ob2ob2ob2ob2ob2ob2ob2ob2ob2ob2ob2ob
2ob2ob2ob2ob2ob2ob2ob2ob2ob2ob2ob2ob2ob2ob2ob2ob2ob2ob2ob2ob2ob2ob2ob
2ob2ob2ob2ob2ob2ob2ob2ob2ob2ob2ob2ob2ob2ob2ob2ob2ob2ob2ob2ob2ob2ob2ob
2ob2ob2ob2ob2ob2ob2ob2ob2ob2ob2ob2ob2ob2ob2ob2ob2ob2ob2ob2ob2ob2ob2ob
2ob2ob2ob2ob2ob2ob2ob2ob2ob2ob2ob2ob2ob2ob2ob2o$2237b2o11bo279b2ob2ob
2ob2ob2ob2ob2ob2ob2ob2ob2ob2ob2ob2ob2ob2ob2ob2ob2ob2ob2ob2ob2ob2ob2ob
2ob2ob2ob2ob2ob2ob2ob2ob2ob2ob2ob2ob2ob2ob2ob2ob2ob2ob2ob2ob2ob2ob2ob
2ob2ob2ob2ob2ob2ob2ob2ob2ob2ob2ob2ob2ob2ob2ob2ob2ob2ob2ob2ob2ob2ob2ob
2ob2ob2ob2ob2ob2ob2ob2ob2ob2ob2ob2ob2ob2ob2ob2ob2ob2ob2ob2ob2ob2ob2ob
2ob2ob2ob2ob2ob2ob2ob2ob2ob2ob2ob2ob2ob2ob2ob2ob2ob2ob2ob2ob2ob2ob2ob
2ob2ob2ob2ob2ob2ob2ob2ob2ob2ob2ob2ob2ob2ob2ob2ob2ob2ob2ob2ob2ob2ob2ob
2ob2ob2ob2ob2ob2ob2ob2ob2ob2ob2ob2ob2ob2ob2o$2184b2o51b2o$2184b2o$
2529b2o$2184b2o12b2o97bo231b2o$2184b2o13bo38bo57b3o$2199bobo35bobo9bo
7b3o35b5o229b2o$2184b2o14b2o34bo3bo8b2o6bo36bobobobo228b2o$2184b2o51b
3o8bobo7bo35b2o3b2o$2235b2o3b2o287b2o$2184b2o85b2o256b2o$2184b2o80bo4b
2o24bo$2260b2ob5o6b2o20bobo230b2o$2184b2o73bo4b2o2bo5b3o5b2o12bobo230b
2o$2184b2o55b2o15bo8b2o5b2o6b2o13bo$2242b2o4b2o8bo7bo4b2o23b2o227b2o2b
2o$2184b2o55bo6b2o8bo12b2o23b2o227b2o2b2o$2184b2o73bo36b2o$2260b2o263b
2o$2184b2o339b2o$2184b2o$2525b2o$2184b2o339b2o$2184b2o54bo$2223b3o13b
3o279b2o2b2o$2184b2o37bo2bo11b5o278b2o2b2o$2184b2o37bo13b2o3b2o$2223bo
297b2o$2184b2o38bobo294b2o$2184b2o$2239b3o279b2o$2184b2o53b3o279b2o$
2184b2o$2517b2o2b2o$2184b2o53b2o276b2o2b2o$2ob2ob2ob2ob2ob2ob2ob2ob2ob
2ob2ob2ob2ob2ob2ob2ob2ob2ob2ob2ob2ob2ob2ob2ob2ob2ob2ob2ob2ob2ob2ob2ob
2ob2ob2ob2ob2ob2ob2ob2ob2ob2ob2ob2ob2ob2ob2ob2ob2ob2ob2ob2ob2ob2ob2ob
2ob2ob2ob2ob2ob2ob2ob2ob2ob2ob2ob2ob2ob2ob2ob2ob2ob2ob2ob2ob2ob2ob2ob
2ob2ob2ob2ob2ob2ob2ob2ob2ob2ob2ob2ob2ob2ob2ob2ob2ob2ob2ob2ob2ob2ob2ob
2ob2ob2ob2ob2ob2ob2ob2ob2ob2ob2ob2ob2ob2ob2ob2ob2ob2ob2ob2ob2ob2ob2ob
2ob2ob2ob2ob2ob2ob2ob2ob2ob2ob2ob2ob2ob2ob2ob2ob2ob2ob2ob2ob2ob2ob2ob
2ob2ob2ob2ob2ob2ob2ob2ob2ob2ob2ob2ob2ob2ob2ob2ob2ob2ob2ob2ob2ob2ob2ob
2ob2ob2ob2ob2ob2ob2ob2ob2ob2ob2ob2ob2ob2ob2ob2ob2ob2ob2ob2ob2ob2ob2ob
2ob2ob2ob2ob2ob2ob2ob2ob2ob2ob2ob2ob2ob2ob2ob2ob2ob2ob2ob2ob2ob2ob2ob
2ob2ob2ob2ob2ob2ob2ob2ob2ob2ob2ob2ob2ob2ob2ob2ob2ob2ob2ob2ob2ob2ob2ob
2ob2o853b2ob2ob2ob2ob2ob2ob2ob2ob2ob2ob2ob2ob2ob2ob2ob2ob2ob2ob2ob2ob
2ob2ob2ob2ob2ob2ob2ob2ob2ob2ob2ob2ob2ob2ob2ob2ob2ob2ob2ob2ob2ob2ob2ob
2ob2ob2ob2ob2ob2ob2ob2ob2ob2ob2ob2ob2ob2ob2ob2ob2ob2ob2ob2ob2ob2ob2ob
2ob2ob2ob2ob2ob2ob2ob2ob2ob2ob2ob2ob2ob2ob2ob2ob2ob2ob2ob2ob2ob2ob2ob
2ob2ob2ob2ob2ob2ob2ob2ob2ob2ob2ob2ob2ob2ob2ob2ob2ob2ob2ob2ob2ob2ob2ob
2ob2ob2ob2ob2ob2ob2ob2ob2ob2ob2ob2ob2ob2ob2ob2ob2ob2ob2ob2ob2ob2ob2ob
2ob2ob2ob2ob2ob2ob2ob2ob2ob2ob2ob2ob2ob2ob2ob2ob2ob2ob2ob2ob2ob2ob2ob
2ob2ob2ob2ob2ob2ob2ob2ob2ob2ob2ob2ob2ob2ob2ob2ob2ob2ob2ob2ob2ob2ob2ob
2ob2ob2ob2ob2ob2ob2ob2ob2ob2ob2ob2ob2ob2ob2ob2ob2ob2ob2ob2ob2o4b2o53b
2o$2ob2ob2ob2ob2ob2ob2ob2ob2ob2ob2ob2ob2ob2ob2ob2ob2ob2ob2ob2ob2ob2ob
2ob2ob2ob2ob2ob2ob2ob2ob2ob2ob2ob2ob2ob2ob2ob2ob2ob2ob2ob2ob2ob2ob2ob
2ob2ob2ob2ob2ob2ob2ob2ob2ob2ob2ob2ob2ob2ob2ob2ob2ob2ob2ob2ob2ob2ob2ob
2ob2ob2ob2ob2ob2ob2ob2ob2ob2ob2ob2ob2ob2ob2ob2ob2ob2ob2ob2ob2ob2ob2ob
2ob2ob2ob2ob2ob2ob2ob2ob2ob2ob2ob2ob2ob2ob2ob2ob2ob2ob2ob2ob2ob2ob2ob
2ob2ob2ob2ob2ob2ob2ob2ob2ob2ob2ob2ob2ob2ob2ob2ob2ob2ob2ob2ob2ob2ob2ob
2ob2ob2ob2ob2ob2ob2ob2ob2ob2ob2ob2ob2ob2ob2ob2ob2ob2ob2ob2ob2ob2ob2ob
2ob2ob2ob2ob2ob2ob2ob2ob2ob2ob2ob2ob2ob2ob2ob2ob2ob2ob2ob2ob2ob2ob2ob
2ob2ob2ob2ob2ob2ob2ob2ob2ob2ob2ob2ob2ob2ob2ob2ob2ob2ob2ob2ob2ob2ob2ob
2ob2ob2ob2ob2ob2ob2ob2ob2ob2ob2ob2ob2ob2ob2ob2ob2ob2ob2ob2ob2ob2ob2ob
2ob2ob2ob2ob2ob2ob2ob2ob2ob2ob2ob2o853b2ob2ob2ob2ob2ob2ob2ob2ob2ob2ob
2ob2ob2ob2ob2ob2ob2ob2ob2ob2ob2ob2ob2ob2ob2ob2ob2ob2ob2ob2ob2ob2ob2ob
2ob2ob2ob2ob2ob2ob2ob2ob2ob2ob2ob2ob2ob2ob2ob2ob2ob2ob2ob2ob2ob2ob2ob
2ob2ob2ob2ob2ob2ob2ob2ob2ob2ob2ob2ob2ob2ob2ob2ob2ob2ob2ob2ob2ob2ob2ob
2ob2ob2ob2ob2ob2ob2ob2ob2ob2ob2ob2ob2ob2ob2ob2ob2ob2ob2ob2ob2ob2ob2ob
2ob2ob2ob2ob2ob2ob2ob2ob2ob2ob2ob2ob2ob2ob2ob2ob2ob2ob2ob2ob2ob2ob2ob
2ob2ob2ob2ob2ob2ob2ob2ob2ob2ob2ob2ob2ob2ob2ob2ob2ob2ob2ob2ob2ob2ob2ob
2ob2ob2ob2ob2ob2ob2ob2ob2ob2ob2ob2ob2ob2ob2ob2ob2ob2ob2ob2ob2ob2ob2ob
2ob2ob2ob2ob2ob2ob2ob2ob2ob2ob2ob2ob2ob2ob2ob2ob2ob2ob2ob2ob2ob2ob2ob
2ob2ob2ob2ob2ob2ob2ob2o337b2o$2517b2o2$5bo2bo26bo2bo26bo2bo26bo2bo26bo
2bo26bo2bo26bo2bo26bo2bo26bo2bo26bo2bo26bo2bo26bo2bo26bo2bo26bo2bo26bo
2bo26bo2bo26bo2bo26bo2bo26bo2bo26bo2bo26bo2bo26bo2bo26bo2bo26bo2bo896b
o2bo26bo2bo26bo2bo26bo2bo26bo2bo26bo2bo26bo2bo26bo2bo26bo2bo26bo2bo26b
o2bo26bo2bo26bo2bo26bo2bo26bo2bo26bo2bo26bo2bo26bo2bo26bo2bo26bo2bo26b
o2bo26bo2bo284b2o2b2o$9bo29bo29bo29bo29bo29bo29bo29bo29bo29bo29bo29bo
29bo29bo29bo29bo29bo29bo29bo29bo29bo29bo29bo29bo899bo29bo29bo29bo29bo
29bo29bo29bo29bo29bo29bo29bo29bo29bo29bo29bo29bo29bo29bo29bo29bo29bo
283b2o2b2o$5bo3bo25bo3bo25bo3bo25bo3bo25bo3bo25bo3bo25bo3bo25bo3bo25bo
3bo25bo3bo25bo3bo25bo3bo25bo3bo25bo3bo25bo3bo25bo3bo25bo3bo25bo3bo25bo
3bo25bo3bo25bo3bo25bo3bo25bo3bo25bo3bo895bo3bo25bo3bo25bo3bo25bo3bo25b
o3bo25bo3bo25bo3bo25bo3bo25bo3bo25bo3bo25bo3bo25bo3bo25bo3bo25bo3bo25b
o3bo25bo3bo25bo3bo25bo3bo25bo3bo25bo3bo25bo3bo25bo3bo$6b4o26b4o26b4o
26b4o26b4o26b4o26b4o26b4o26b4o26b4o26b4o26b4o26b4o26b4o26b4o26b4o26b4o
26b4o26b4o26b4o26b4o26b4o26b4o26b4o896b4o26b4o26b4o26b4o26b4o26b4o26b
4o26b4o26b4o26b4o26b4o26b4o26b4o26b4o26b4o26b4o26b4o26b4o26b4o26b4o26b
4o26b4o283b2o$2513b2o$2239b2o$2239bobo267b2o2b2o$2ob2ob2ob2ob2ob2ob2ob
2ob2ob2ob2ob2ob2ob2ob2ob2ob2ob2ob2ob2ob2ob2ob2ob2ob2ob2ob2ob2ob2ob2ob
2ob2ob2ob2ob2ob2ob2ob2ob2ob2ob2ob2ob2ob2ob2ob2ob2ob2ob2ob2ob2ob2ob2ob
2ob2ob2ob2ob2ob2ob2ob2ob2ob2ob2ob2ob2ob2ob2ob2ob2ob2ob2ob2ob2ob2ob2ob
2ob2ob2ob2ob2ob2ob2ob2ob2ob2ob2ob2ob2ob2ob2ob2ob2ob2ob2ob2ob2ob2ob2ob
2ob2ob2ob2ob2ob2ob2ob2ob2ob2ob2ob2ob2ob2ob2ob2ob2ob2ob2ob2ob2ob2ob2ob
2ob2ob2ob2ob2ob2ob2ob2ob2ob2ob2ob2ob2ob2ob2ob2ob2ob2ob2ob2ob2ob2ob2ob
2ob2ob2ob2ob2ob2ob2ob2ob2ob2ob2ob2ob2ob2ob2ob2ob2ob2ob2ob2ob2ob2ob2ob
2ob2ob2ob2ob2ob2ob2ob2ob2ob2ob2ob2ob2ob2ob2ob2ob2ob2ob2ob2ob2ob2ob2ob
2ob2ob2ob2ob2ob2ob2ob2ob2ob2ob2ob2ob2ob2ob2ob2ob2ob2ob2ob2ob2ob2ob2ob
2ob2ob2ob2ob2ob2ob2ob2ob2ob2ob2ob2ob2ob2ob2ob2ob2ob2ob2ob2ob2ob2ob2ob
2ob2ob2ob2o853b2ob2ob2ob2ob2ob2ob2ob2ob2ob2ob2ob2ob2ob2ob2ob2ob2ob2ob
2ob2ob2ob2ob2ob2ob2ob2ob2ob2ob2ob2ob2ob2ob2ob2ob2ob2ob2ob2ob2ob2ob2ob
2ob2ob2ob2ob2ob2ob2ob2ob2ob2ob2ob2ob2ob2ob2ob2ob2ob2ob2ob2ob2ob2ob2ob
2ob2ob2ob2ob2ob2ob2ob2ob2ob2ob2ob2ob2ob2ob2ob2ob2ob2ob2ob2ob2ob2ob2ob
2ob2ob2ob2ob2ob2ob2ob2ob2ob2ob2ob2ob2ob2ob2ob2ob2ob2ob2ob2ob2ob2ob2ob
2ob2ob2ob2ob2ob2ob2ob2ob2ob2ob2ob2ob2ob2ob2ob2ob2ob2ob2ob2ob2ob2ob2ob
2ob2ob2ob2ob2ob2ob2ob2ob2ob2ob2ob2ob2ob2ob2ob2ob2ob2ob2ob2ob2ob2ob2ob
2ob2ob2ob2ob2ob2ob2ob2ob2ob2ob2ob2ob2ob2ob2ob2ob2ob2ob2ob2ob2ob2ob2ob
2ob2ob2ob2ob2ob2ob2ob2ob2ob2ob2ob2ob2ob2ob2ob2ob2ob2ob2ob2ob2ob2ob2o4b
2o53bo269b2o2b2o$2ob2ob2ob2ob2ob2ob2ob2ob2ob2ob2ob2ob2ob2ob2ob2ob2ob2o
b2ob2ob2ob2ob2ob2ob2ob2ob2ob2ob2ob2ob2ob2ob2ob2ob2ob2ob2ob2ob2ob2ob2ob
2ob2ob2ob2ob2ob2ob2ob2ob2ob2ob2ob2ob2ob2ob2ob2ob2ob2ob2ob2ob2ob2ob2ob
2ob2ob2ob2ob2ob2ob2ob2ob2ob2ob2ob2ob2ob2ob2ob2ob2ob2ob2ob2ob2ob2ob2ob
2ob2ob2ob2ob2ob2ob2ob2ob2ob2ob2ob2ob2ob2ob2ob2ob2ob2ob2ob2ob2ob2ob2ob
2ob2ob2ob2ob2ob2ob2ob2ob2ob2ob2ob2ob2ob2ob2ob2ob2ob2ob2ob2ob2ob2ob2ob
2ob2ob2ob2ob2ob2ob2ob2ob2ob2ob2ob2ob2ob2ob2ob2ob2ob2ob2ob2ob2ob2ob2ob
2ob2ob2ob2ob2ob2ob2ob2ob2ob2ob2ob2ob2ob2ob2ob2ob2ob2ob2ob2ob2ob2ob2ob
2ob2ob2ob2ob2ob2ob2ob2ob2ob2ob2ob2ob2ob2ob2ob2ob2ob2ob2ob2ob2ob2ob2ob
2ob2ob2ob2ob2ob2ob2ob2ob2ob2ob2ob2ob2ob2ob2ob2ob2ob2ob2ob2ob2ob2ob2ob
2ob2ob2ob2ob2ob2ob2ob2ob2ob2ob2ob2ob2ob2ob2ob2o853b2ob2ob2ob2ob2ob2ob
2ob2ob2ob2ob2ob2ob2ob2ob2ob2ob2ob2ob2ob2ob2ob2ob2ob2ob2ob2ob2ob2ob2ob
2ob2ob2ob2ob2ob2ob2ob2ob2ob2ob2ob2ob2ob2ob2ob2ob2ob2ob2ob2ob2ob2ob2ob
2ob2ob2ob2ob2ob2ob2ob2ob2ob2ob2ob2ob2ob2ob2ob2ob2ob2ob2ob2ob2ob2ob2ob
2ob2ob2ob2ob2ob2ob2ob2ob2ob2ob2ob2ob2ob2ob2ob2ob2ob2ob2ob2ob2ob2ob2ob
2ob2ob2ob2ob2ob2ob2ob2ob2ob2ob2ob2ob2ob2ob2ob2ob2ob2ob2ob2ob2ob2ob2ob
2ob2ob2ob2ob2ob2ob2ob2ob2ob2ob2ob2ob2ob2ob2ob2ob2ob2ob2ob2ob2ob2ob2ob
2ob2ob2ob2ob2ob2ob2ob2ob2ob2ob2ob2ob2ob2ob2ob2ob2ob2ob2ob2ob2ob2ob2ob
2ob2ob2ob2ob2ob2ob2ob2ob2ob2ob2ob2ob2ob2ob2ob2ob2ob2ob2ob2ob2ob2ob2ob
2ob2ob2ob2ob2ob2ob2ob2ob2ob2ob2ob2o4b2o$2509b2o$2184b2o323b2o$2184b2o$
2505b2o2b2o$2184b2o22b2o295b2o2b2o$2184b2o21bobo$2206b3o14b3o279b2o$
2184b2o20b2o15bo2bo278b2o$2184b2o20b2o15bo$2207bobo5b2o6bo277b2o2b2o$
2184b2o22bo5bobo7bobo274b2o2b2o$2184b2o28bobob2o34b2o$2215bobobo34bobo
244b2o$2184b2o19b2o3b2o5bo36bo246b2o$2184b2o19b2o3b2o4b2o$2215b3o25b2o
252b2o2b2o$2184b2o21b3o5b3o24bo2bo251b2o2b2o$2184b2o21b3o5b3o27bo$
2208bo7b2o27bo251b2o$2184b2o31bo25bobo11bo3b3o233b2o$2184b2o29bobobo
11b2o10bobo11b2o2bo$2214bobob2o3b3o5b2o11bo11bobo3bo227b2ob2o2b2o$
2184b2o28bobo5bo2bo5b2o257b2ob2o2b2o$2184b2o29b2o8bo6bo$2210bo14bo5bob
o7b2o3b2o$2184b2o25b2o9bobo6bobo7bo5bo21bo2bo8bo202b2ob2ob2o$2184b2o
24b2o20bo36bo10bobo201b2ob2ob2o$2242bo3bo2b2o14bo2bo3b2o5bo3b2o$2184b
2o19b3o35b3o4b2o10b4o3b2obobo4bo3b2o3b2o$2184b2o18bo3bo20b2o3b2o13bo
11b4o14bo3b2o3b2o188b2ob2ob2o$2203bo5bo19bobobobo18b2o5bo2bo8b2o5bobo
195b2ob2ob2o$2184b2o17bo5bo20b5o19b2o5b4o16bo$2184b2o20bo10bobo6b2o3b
3o28b4o$2204bo4bo8b2o6bobo3bo32bo206b2ob2ob2o$2184b2o19bo12bo7bo245b2o
b2ob2o$2184b2o20bo39bo$2210bo11bo21b2ob2o$2184b2o22bobo11b2o242b2ob2ob
2o$2184b2o23bo11bobo19bo5bo216b2ob2ob2o2$2184b2o57b2obob2o$2184b2o20b
2o3b2o16b3o228b2ob2ob2o$2206bo5bo15b2ob2o227b2ob2ob2o$2184b2o42b2ob2o$
2184b2o21bo3bo2b2o12b5o$2208b3o4b2o10b2o3b2o220b2ob2ob2o$2184b2o28bo
239b2ob2ob2o$2184b2o2$2184b2o59b2o201b2ob2ob2o$2184b2o45b2o12b2o201b2o
b2ob2o2$2184b2o25bo$2184b2o23b2ob2o228b2ob2ob2o$2229b2o211b2ob2ob2o$
2184b2o22bo5bo14b2o$2184b2o$2208b2obob2o221b2ob2ob2o$2184b2o250b2ob2ob
2o$2184b2o2$2184b2o244b2ob2ob2o$2184b2o244b2ob2ob2o2$2184b2o$2184b2o
238b2ob2ob2o$2211b2o211b2ob2ob2o$2184b2o25b2o$2184b2o$2418b2ob2ob2o$
2184b2o232b2ob2ob2o$2184b2o2$2187b2ob2ob2ob2ob2ob2ob2ob2ob2ob2ob2ob2ob
2ob2ob2ob2ob2ob2ob2ob2ob2ob2ob2ob2ob2ob2ob2ob2ob2ob2ob2ob2ob2ob2ob2ob
2ob2ob2ob2ob2ob2ob2ob2ob2ob2ob2ob2ob2ob2ob2ob2ob2ob2ob2ob2ob2ob2ob2ob
2ob2ob2ob2ob2ob2ob2ob2ob2ob2ob2ob2ob2ob2ob2ob2ob2ob2ob2ob2o$2187b2ob2o
b2ob2ob2ob2ob2ob2ob2ob2ob2ob2ob2ob2ob2ob2ob2ob2ob2ob2ob2ob2ob2ob2ob2ob
2ob2ob2ob2ob2ob2ob2ob2ob2ob2ob2ob2ob2ob2ob2ob2ob2ob2ob2ob2ob2ob2ob2ob
2ob2ob2ob2ob2ob2ob2ob2ob2ob2ob2ob2ob2ob2ob2ob2ob2ob2ob2ob2ob2ob2ob2ob
2ob2ob2ob2ob2ob2ob2o!
