x = 1881, y = 253, rule = B3/S23
976b2o2b2ob2o$976b2o2b2ob2o2$976b2o8b2ob2ob2o$976b2o8b2ob2ob2o2$976b2o
17b2ob2ob2o$976b2o17b2ob2ob2o2$976b2o26b2ob2ob2o$976b2o26b2ob2ob2o2$
976b2o35b2ob2ob2o$976b2o35b2ob2ob2o2$976b2o44b2ob2ob2o$976b2o44b2ob2ob
2o2$976b2o53b2ob2ob2o$976b2o53b2ob2ob2o2$976b2o62b2ob2ob2o$976b2o62b2o
b2ob2o2$976b2o71b2ob2ob2o$976b2o71b2ob2ob2o2$976b2o80b2ob2ob2o$976b2o
80b2ob2ob2o2$976b2o89b2ob2ob2o$976b2o89b2ob2ob2o2$976b2o98b2ob2ob2o$
976b2o98b2ob2ob2o2$976b2o107b2ob2ob2o$976b2o107b2ob2ob2o2$976b2o116b2o
b2ob2o$976b2o116b2ob2ob2o2$976b2o125b2ob2ob2o$976b2o125b2ob2ob2o2$976b
2o134b2ob2ob2o$976b2o134b2ob2ob2o2$976b2o143b2ob2ob2o$976b2o143b2ob2ob
2o2$976b2o152b2ob2ob2o$976b2o152b2ob2ob2o2$976b2o161b2ob2ob2o$976b2o
161b2ob2ob2o2$976b2o170b2ob2ob2o$976b2o170b2ob2ob2o2$976b2o179b2ob2ob
2o$976b2o179b2ob2ob2o2$976b2o188b2ob2ob2o$976b2o188b2ob2ob2o2$976b2o
197b2ob2ob2o$976b2o197b2ob2ob2o2$976b2o206b2ob2ob2o$976b2o206b2ob2ob2o
2$976b2o215b2ob2ob2o$976b2o215b2ob2ob2o2$976b2o224b2ob2ob2o$976b2o224b
2ob2ob2o2$976b2o233b2ob2ob2o$976b2o233b2ob2ob2o2$976b2o242b2ob2ob2o$
976b2o242b2ob2ob2o2$976b2o251b2ob2ob2o$976b2o251b2ob2ob2o2$976b2o260b
2ob2ob2o$976b2o260b2ob2ob2o2$976b2o269b2ob2ob2o$976b2o269b2ob2ob2o2$
976b2o278b2ob2ob2o$976b2o278b2ob2ob2o2$976b2o45bo241b2ob2ob2o$976b2o
42b4o241b2ob2ob2o$1011bo7b4o9b2o$976b2o32bobo6bo2bo9b2o240b2ob2ob2o$
976b2o20b2o9bo3b2o4b4o5bo245b2ob2ob2o$998b2o9bo3b2o5b4o4bo$976b2o31bo
3b2o8bo259b2ob2ob2o$976b2o32bobo270b2ob2ob2o$1011bo$976b2o42bobo57b2o
210b2ob2ob2o$976b2o43b2o55bo3bo209b2ob2ob2o$1021bo55bo5bo13b2o$976b2o
91b2o5bo2bo3bo13b2o4b3o195b2ob2ob2o$976b2o89bo2bo12bo10b2o6b5o22bo171b
2ob2ob2o$1054bobo9bo7bo7bo10b3o5bo3bobo19b3o$976b2o76bo3bo7bo6bo4bob2o
12b2o6bo3b2o18bo183b2ob2ob2o28b2ob2ob2o$976b2o50bo29bo7bo7b2o9bobo9b2o
27b2o182b2ob2ob2o28b2ob2ob2o$1029b2o13b2o8bo4bo7bo2bo14b2o10b2o$976b2o
50b2o14b2o12bo10b2o15bo232b2ob2ob2o16b2o10b2o$976b2o76bo3bo260b2ob2ob
2o16b2o10b2o$1054bobo8bobo21b2o9b2o$976b2o88b2o20bo2bo7bo2bo225b2ob2ob
2o4b2o16b2o$976b2o88bo21b3o9b3o225b2ob2ob2o4b2o16b2o$1079bo11b9o$2ob2o
b2ob2ob2ob2ob2ob2ob2ob2ob2ob2ob2ob2ob2ob2ob2ob2ob2ob2ob2ob2ob2ob2ob2ob
2ob2ob2ob2ob2ob2ob2ob2ob2ob2ob2ob2ob2ob2ob2ob2ob2ob2ob2ob2ob2ob2ob2ob
2ob2ob2ob2ob2ob2ob2ob2ob2ob2ob2ob2ob2ob2ob2ob2ob2ob2ob2ob2ob2ob2ob2ob
2ob2ob2ob2ob2ob2ob2ob2ob2ob2ob2ob2ob2ob2ob2ob2ob2ob2ob2ob2ob2ob2ob2ob
2ob2ob2ob2ob2ob2ob2ob2ob2ob2ob2ob2ob2ob2ob2ob2ob2ob2ob2ob2ob2ob2ob2ob
2ob2ob2ob2ob2ob2ob2ob2ob2ob2ob2ob2ob2ob2ob2ob2ob2ob2ob2ob2ob2ob2ob2ob
2ob2ob2ob2ob2ob2ob2ob2ob2ob2ob2ob2ob2ob2ob2ob2ob2ob2ob2ob2ob2ob2ob2ob
2ob2ob2ob2ob2ob2ob2ob2ob2ob2ob2ob2ob2ob2ob2ob2ob2ob2ob2ob2ob2ob2ob2ob
2ob2ob2ob2ob2ob2ob2ob2ob2ob2ob2ob2ob2ob2ob2ob2ob2ob2ob2ob2ob2ob2ob2ob
2ob2ob2ob2ob2ob2ob2ob2ob2ob2ob2ob2ob2ob2ob2ob2ob2ob2ob2ob2ob2ob2ob2ob
2ob2ob2ob2ob2ob2ob2ob2ob2ob2ob2ob2ob2ob2ob2ob2ob2ob2ob2ob2ob2ob2ob2ob
2ob2ob2ob2ob2ob2ob2ob2ob2ob2ob2ob2ob2ob2ob2ob2ob2ob2ob2ob2ob2ob2ob2ob
2ob2ob2ob2ob2ob2ob2ob2ob2ob2ob2ob2ob2ob2ob2ob2ob2ob2ob2ob2ob2ob2ob2ob
2ob2ob2ob2ob2ob2ob2ob2ob2ob2ob2ob2ob2ob2ob2ob2ob2ob2ob2ob2ob2ob2ob2ob
2o2b2o57bobo39b2o11bo2b5o2bo236b2o22b2ob2ob2ob2ob2ob2ob2ob2ob2ob2ob2ob
2ob2ob2ob2ob2ob2ob2ob2ob2ob2ob2ob2ob2ob2ob2ob2ob2ob2ob2ob2ob2ob2ob2ob
2ob2ob2ob2ob2ob2ob2ob2ob2ob2ob2ob2ob2ob2ob2ob2ob2ob2ob2ob2ob2ob2ob2ob
2ob2ob2ob2ob2ob2ob2ob2ob2ob2ob2ob2ob2ob2ob2ob2ob2ob2ob2ob2ob2ob2ob2ob
2ob2ob2ob2ob2ob2ob2ob2ob2ob2ob2ob2ob2ob2ob2ob2ob2ob2ob2ob2ob2ob2ob2ob
2ob2ob2ob2ob2ob2ob2ob2ob2ob2ob2ob2ob2ob2ob2ob2ob2ob2ob2ob2ob2ob2ob2ob
2ob2ob2ob2ob2ob2ob2ob2ob2ob2ob2ob2ob2ob2ob2ob2ob2ob2ob2ob2ob2ob2ob2ob
2ob2ob2ob2ob2ob2ob2ob2ob2ob2ob2ob2ob2ob2ob2ob2ob2ob2ob2ob2ob2ob2ob2ob
2obo$2ob2ob2ob2ob2ob2ob2ob2ob2ob2ob2ob2ob2ob2ob2ob2ob2ob2ob2ob2ob2ob2o
b2ob2ob2ob2ob2ob2ob2ob2ob2ob2ob2ob2ob2ob2ob2ob2ob2ob2ob2ob2ob2ob2ob2ob
2ob2ob2ob2ob2ob2ob2ob2ob2ob2ob2ob2ob2ob2ob2ob2ob2ob2ob2ob2ob2ob2ob2ob
2ob2ob2ob2ob2ob2ob2ob2ob2ob2ob2ob2ob2ob2ob2ob2ob2ob2ob2ob2ob2ob2ob2ob
2ob2ob2ob2ob2ob2ob2ob2ob2ob2ob2ob2ob2ob2ob2ob2ob2ob2ob2ob2ob2ob2ob2ob
2ob2ob2ob2ob2ob2ob2ob2ob2ob2ob2ob2ob2ob2ob2ob2ob2ob2ob2ob2ob2ob2ob2ob
2ob2ob2ob2ob2ob2ob2ob2ob2ob2ob2ob2ob2ob2ob2ob2ob2ob2ob2ob2ob2ob2ob2ob
2ob2ob2ob2ob2ob2ob2ob2ob2ob2ob2ob2ob2ob2ob2ob2ob2ob2ob2ob2ob2ob2ob2ob
2ob2ob2ob2ob2ob2ob2ob2ob2ob2ob2ob2ob2ob2ob2ob2ob2ob2ob2ob2ob2ob2ob2ob
2ob2ob2ob2ob2ob2ob2ob2ob2ob2ob2ob2ob2ob2ob2ob2ob2ob2ob2ob2ob2ob2ob2ob
2ob2ob2ob2ob2ob2ob2ob2ob2ob2ob2ob2ob2ob2ob2ob2ob2ob2ob2ob2ob2ob2ob2ob
2ob2ob2ob2ob2ob2ob2ob2ob2ob2ob2ob2ob2ob2ob2ob2ob2ob2ob2ob2ob2ob2ob2ob
2ob2ob2ob2ob2ob2ob2ob2ob2ob2ob2ob2ob2ob2ob2ob2ob2ob2ob2ob2ob2ob2ob2ob
2ob2ob2ob2ob2ob2ob2ob2ob2ob2ob2ob2ob2ob2ob2ob2ob2ob2ob2ob2ob2ob2ob2ob
2ob2ob2ob2o2b2o58b2o40b2o10b2o2b3o2b2o236b2o22b2ob2ob2ob2ob2ob2ob2ob2o
b2ob2ob2ob2ob2ob2ob2ob2ob2ob2ob2ob2ob2ob2ob2ob2ob2ob2ob2ob2ob2ob2ob2ob
2ob2ob2ob2ob2ob2ob2ob2ob2ob2ob2ob2ob2ob2ob2ob2ob2ob2ob2ob2ob2ob2ob2ob
2ob2ob2ob2ob2ob2ob2ob2ob2ob2ob2ob2ob2ob2ob2ob2ob2ob2ob2ob2ob2ob2ob2ob
2ob2ob2ob2ob2ob2ob2ob2ob2ob2ob2ob2ob2ob2ob2ob2ob2ob2ob2ob2ob2ob2ob2ob
2ob2ob2ob2ob2ob2ob2ob2ob2ob2ob2ob2ob2ob2ob2ob2ob2ob2ob2ob2ob2ob2ob2ob
2ob2ob2ob2ob2ob2ob2ob2ob2ob2ob2ob2ob2ob2ob2ob2ob2ob2ob2ob2ob2ob2ob2ob
2ob2ob2ob2ob2ob2ob2ob2ob2ob2ob2ob2ob2ob2ob2ob2ob2ob2ob2ob2ob2ob2ob2ob
2ob2ob2ob2obo$1036bo$1073bo$6bo2bo26bo2bo26bo2bo26bo2bo26bo2bo26bo2bo
26bo2bo26bo2bo26bo2bo26bo2bo26bo2bo26bo2bo26bo2bo26bo2bo26bo2bo26bo2bo
26bo2bo26bo2bo26bo2bo26bo2bo26bo2bo26bo2bo26bo2bo26bo2bo26bo2bo26bo2bo
26bo2bo26bo2bo26bo2bo26bo2bo26bo2bo26bo2bo26bo2bo104b2o10bo2bo26bo2bo$
10bo29bo29bo29bo29bo29bo29bo29bo29bo29bo29bo29bo29bo29bo29bo29bo29bo
29bo29bo29bo29bo29bo29bo29bo29bo29bo29bo29bo29bo29bo29bo29bo29bo102b2o
15bo29bo$6bo3bo25bo3bo25bo3bo25bo3bo25bo3bo25bo3bo25bo3bo25bo3bo25bo3b
o25bo3bo25bo3bo25bo3bo25bo3bo25bo3bo25bo3bo25bo3bo25bo3bo25bo3bo25bo3b
o25bo3bo25bo3bo25bo3bo25bo3bo25bo3bo25bo3bo25bo3bo25bo3bo25bo3bo25bo3b
o25bo3bo25bo3bo25bo3bo25bo3bo115bo3bo25bo3bo$7b4o26b4o26b4o26b4o26b4o
26b4o26b4o26b4o26b4o26b4o26b4o26b4o26b4o26b4o26b4o26b4o26b4o26b4o26b4o
26b4o26b4o26b4o26b4o26b4o26b4o26b4o26b4o26b4o26b4o26b4o26b4o26b4o26b4o
72bo43b4o26b4o$1044b2o31b3o$1043b2o21bo12bo$1066b4o8bo$2ob2ob2ob2ob2ob
2ob2ob2ob2ob2ob2ob2ob2ob2ob2ob2ob2ob2ob2ob2ob2ob2ob2ob2ob2ob2ob2ob2ob
2ob2ob2ob2ob2ob2ob2ob2ob2ob2ob2ob2ob2ob2ob2ob2ob2ob2ob2ob2ob2ob2ob2ob
2ob2ob2ob2ob2ob2ob2ob2ob2ob2ob2ob2ob2ob2ob2ob2ob2ob2ob2ob2ob2ob2ob2ob
2ob2ob2ob2ob2ob2ob2ob2ob2ob2ob2ob2ob2ob2ob2ob2ob2ob2ob2ob2ob2ob2ob2ob
2ob2ob2ob2ob2ob2ob2ob2ob2ob2ob2ob2ob2ob2ob2ob2ob2ob2ob2ob2ob2ob2ob2ob
2ob2ob2ob2ob2ob2ob2ob2ob2ob2ob2ob2ob2ob2ob2ob2ob2ob2ob2ob2ob2ob2ob2ob
2ob2ob2ob2ob2ob2ob2ob2ob2ob2ob2ob2ob2ob2ob2ob2ob2ob2ob2ob2ob2ob2ob2ob
2ob2ob2ob2ob2ob2ob2ob2ob2ob2ob2ob2ob2ob2ob2ob2ob2ob2ob2ob2ob2ob2ob2ob
2ob2ob2ob2ob2ob2ob2ob2ob2ob2ob2ob2ob2ob2ob2ob2ob2ob2ob2ob2ob2ob2ob2ob
2ob2ob2ob2ob2ob2ob2ob2ob2ob2ob2ob2ob2ob2ob2ob2ob2ob2ob2ob2ob2ob2ob2ob
2ob2ob2ob2ob2ob2ob2ob2ob2ob2ob2ob2ob2ob2ob2ob2ob2ob2ob2ob2ob2ob2ob2ob
2ob2ob2ob2ob2ob2ob2ob2ob2ob2ob2ob2ob2ob2ob2ob2ob2ob2ob2ob2ob2ob2ob2ob
2ob2ob2ob2ob2ob2ob2ob2ob2ob2ob2ob2ob2ob2ob2ob2ob2ob2ob2ob2ob2ob2ob2ob
2ob2ob2ob2ob2ob2ob2ob2ob2ob2ob2ob2ob2ob2ob2ob2ob2ob2ob2ob2ob2o2b2o78b
2o9b4o10b2o254b2o22b2ob2ob2ob2ob2ob2ob2ob2ob2ob2ob2ob2ob2ob2ob2ob2ob2o
b2ob2ob2ob2ob2ob2ob2ob2ob2ob2ob2ob2ob2ob2ob2ob2ob2ob2ob2ob2ob2ob2ob2ob
2ob2ob2ob2ob2ob2ob2ob2ob2ob2ob2ob2ob2ob2ob2ob2ob2ob2ob2ob2ob2ob2ob2ob
2ob2ob2ob2ob2ob2ob2ob2ob2ob2ob2ob2ob2ob2ob2ob2ob2ob2ob2ob2ob2ob2ob2ob
2ob2ob2ob2ob2ob2ob2ob2ob2ob2ob2ob2ob2ob2ob2ob2ob2ob2ob2ob2ob2ob2ob2ob
2ob2ob2ob2ob2ob2ob2ob2ob2ob2ob2ob2ob2ob2ob2ob2ob2ob2ob2ob2ob2ob2ob2ob
2ob2ob2ob2ob2ob2ob2ob2ob2ob2ob2ob2ob2ob2ob2ob2ob2ob2ob2ob2ob2ob2ob2ob
2ob2ob2ob2ob2ob2ob2ob2ob2ob2ob2ob2ob2ob2ob2ob2ob2ob2obo$2ob2ob2ob2ob2o
b2ob2ob2ob2ob2ob2ob2ob2ob2ob2ob2ob2ob2ob2ob2ob2ob2ob2ob2ob2ob2ob2ob2ob
2ob2ob2ob2ob2ob2ob2ob2ob2ob2ob2ob2ob2ob2ob2ob2ob2ob2ob2ob2ob2ob2ob2ob
2ob2ob2ob2ob2ob2ob2ob2ob2ob2ob2ob2ob2ob2ob2ob2ob2ob2ob2ob2ob2ob2ob2ob
2ob2ob2ob2ob2ob2ob2ob2ob2ob2ob2ob2ob2ob2ob2ob2ob2ob2ob2ob2ob2ob2ob2ob
2ob2ob2ob2ob2ob2ob2ob2ob2ob2ob2ob2ob2ob2ob2ob2ob2ob2ob2ob2ob2ob2ob2ob
2ob2ob2ob2ob2ob2ob2ob2ob2ob2ob2ob2ob2ob2ob2ob2ob2ob2ob2ob2ob2ob2ob2ob
2ob2ob2ob2ob2ob2ob2ob2ob2ob2ob2ob2ob2ob2ob2ob2ob2ob2ob2ob2ob2ob2ob2ob
2ob2ob2ob2ob2ob2ob2ob2ob2ob2ob2ob2ob2ob2ob2ob2ob2ob2ob2ob2ob2ob2ob2ob
2ob2ob2ob2ob2ob2ob2ob2ob2ob2ob2ob2ob2ob2ob2ob2ob2ob2ob2ob2ob2ob2ob2ob
2ob2ob2ob2ob2ob2ob2ob2ob2ob2ob2ob2ob2ob2ob2ob2ob2ob2ob2ob2ob2ob2ob2ob
2ob2ob2ob2ob2ob2ob2ob2ob2ob2ob2ob2ob2ob2ob2ob2ob2ob2ob2ob2ob2ob2ob2ob
2ob2ob2ob2ob2ob2ob2ob2ob2ob2ob2ob2ob2ob2ob2ob2ob2ob2ob2ob2ob2ob2ob2ob
2ob2ob2ob2ob2ob2ob2ob2ob2ob2ob2ob2ob2ob2ob2ob2ob2ob2ob2ob2ob2ob2ob2ob
2ob2ob2ob2ob2ob2ob2ob2ob2ob2ob2ob2ob2ob2ob2ob2ob2ob2ob2ob2ob2o2b2o78b
2o9bo2bo9bobo254b2o22b2ob2ob2ob2ob2ob2ob2ob2ob2ob2ob2ob2ob2ob2ob2ob2ob
2ob2ob2ob2ob2ob2ob2ob2ob2ob2ob2ob2ob2ob2ob2ob2ob2ob2ob2ob2ob2ob2ob2ob
2ob2ob2ob2ob2ob2ob2ob2ob2ob2ob2ob2ob2ob2ob2ob2ob2ob2ob2ob2ob2ob2ob2ob
2ob2ob2ob2ob2ob2ob2ob2ob2ob2ob2ob2ob2ob2ob2ob2ob2ob2ob2ob2ob2ob2ob2ob
2ob2ob2ob2ob2ob2ob2ob2ob2ob2ob2ob2ob2ob2ob2ob2ob2ob2ob2ob2ob2ob2ob2ob
2ob2ob2ob2ob2ob2ob2ob2ob2ob2ob2ob2ob2ob2ob2ob2ob2ob2ob2ob2ob2ob2ob2ob
2ob2ob2ob2ob2ob2ob2ob2ob2ob2ob2ob2ob2ob2ob2ob2ob2ob2ob2ob2ob2ob2ob2ob
2ob2ob2ob2ob2ob2ob2ob2ob2ob2ob2ob2ob2ob2ob2ob2ob2ob2ob2obo$1061bo5b4o
8b3o4b2ob3o$976b2o83bo4b4o8b3o4bo2b4o236b2ob2ob2o4b2o16b2o$976b2o72bob
o13bo12b3o4b2o240b2ob2ob2o4b2o16b2o$1051b2o27bobo$976b2o73bo29b2o236b
2ob2ob2o16b2o10b2o$976b2o341b2ob2ob2o16b2o10b2o2$976b2o332b2ob2ob2o28b
2ob2ob2o$976b2o332b2ob2ob2o28b2ob2ob2o$1058bo$976b2o81b2o240b2ob2ob2o$
976b2o80b2o241b2ob2ob2o2$976b2o314b2ob2ob2o$976b2o314b2ob2ob2o2$976b2o
305b2ob2ob2o$976b2o87bobo215b2ob2ob2o$1066b2o$976b2o88bo207b2ob2ob2o$
976b2o296b2ob2ob2o2$976b2o287b2ob2ob2o$976b2o287b2ob2ob2o$1073bo$976b
2o96b2o180b2ob2ob2o$976b2o95b2o181b2ob2ob2o2$976b2o269b2ob2ob2o$976b2o
269b2ob2ob2o2$976b2o260b2ob2ob2o$976b2o260b2ob2ob2o$1053b2o$976b2o75b
2o174b2ob2ob2o$976b2o251b2ob2ob2o$1068b2o$976b2o91b2o149b2ob2ob2o$976b
2o90bo151b2ob2ob2o2$976b2o233b2ob2ob2o$976b2o233b2ob2ob2o2$976b2o83bo
30b2o108b2ob2ob2o$976b2o73b2o3b2o3b2o29bobo107b2ob2ob2o$1060bobo31bo$
976b2o74bo3bo37b2o97b2ob2ob2o$976b2o75b3o137b2ob2ob2o$1053b3o$976b2o
206b2ob2ob2o$976b2o206b2ob2ob2o$1056bo$976b2o77b3o117b2ob2ob2o$976b2o
76bo3bo116b2ob2ob2o$1056bo$976b2o75bo5bo106b2ob2ob2o$976b2o75bo5bo106b
2ob2ob2o$1054bo3bo$976b2o77b3o99b2ob2ob2o$976b2o179b2ob2ob2o2$976b2o
170b2ob2ob2o$976b2o170b2ob2ob2o2$976b2o161b2ob2ob2o$976b2o161b2ob2ob2o
2$976b2o77b2o73b2ob2ob2o$976b2o77b2o73b2ob2ob2o2$976b2o143b2ob2ob2o$
976b2o143b2ob2ob2o2$976b2o134b2ob2ob2o$976b2o134b2ob2ob2o2$976b2o125b
2ob2ob2o$976b2o125b2ob2ob2o2$976b2o116b2ob2ob2o$976b2o116b2ob2ob2o2$
976b2o107b2ob2ob2o$976b2o107b2ob2ob2o2$976b2o98b2ob2ob2o$976b2o98b2ob
2ob2o2$976b2o89b2ob2ob2o$976b2o89b2ob2ob2o2$976b2o80b2ob2ob2o$976b2o
80b2ob2ob2o2$976b2o71b2ob2ob2o$976b2o71b2ob2ob2o2$976b2o62b2ob2ob2o$
976b2o62b2ob2ob2o2$976b2o53b2ob2ob2o$976b2o53b2ob2ob2o2$976b2o44b2ob2o
b2o$976b2o44b2ob2ob2o2$976b2o35b2ob2ob2o$976b2o35b2ob2ob2o2$976b2o26b
2ob2ob2o$976b2o26b2ob2ob2o2$976b2o17b2ob2ob2o$976b2o17b2ob2ob2o2$976b
2o8b2ob2ob2o$976b2o8b2ob2ob2o2$976b2o2b2ob2o$976b2o2b2ob2o!
