#CXRLE Pos=-2195,-98
x = 2943, y = 257, rule = B3/S23
2082b2ob2ob2ob2ob2ob2ob2ob2ob2ob2ob2ob2ob2ob2ob2ob2ob2ob2ob2ob2ob2ob2o
b2ob2ob2ob2ob2ob2ob2ob2ob2ob2ob2ob2ob2ob2ob2ob2ob2ob2ob2ob2ob2ob2ob2ob
2ob2ob2ob2ob2ob2ob2ob2ob2ob2ob2ob2ob2ob2ob2ob2ob2ob2ob2ob2ob2ob2ob2ob
2ob2ob2ob2ob2ob2ob2ob2ob2ob2ob2ob2ob2ob2ob2ob2ob2ob2ob2ob2ob2ob2ob2ob
2ob2ob2ob2ob2o$2077b2o3b2ob2ob2ob2ob2ob2ob2ob2ob2ob2ob2ob2ob2ob2ob2ob
2ob2ob2ob2ob2ob2ob2ob2ob2ob2ob2ob2ob2ob2ob2ob2ob2ob2ob2ob2ob2ob2ob2ob
2ob2ob2ob2ob2ob2ob2ob2ob2ob2ob2ob2ob2ob2ob2ob2ob2ob2ob2ob2ob2ob2ob2ob
2ob2ob2ob2ob2ob2ob2ob2ob2ob2ob2ob2ob2ob2ob2ob2ob2ob2ob2ob2ob2ob2ob2ob
2ob2ob2ob2ob2ob2ob2ob2ob2ob2ob2ob2o$2077b2o2$2080b2o285b2ob2ob2o$2080b
2o285b2ob2ob2o$2084b2o$2084b2o$2373b2ob2ob2o$2087b2o284b2ob2ob2o$2087b
2o2$2090b2o287b2ob2ob2o$2090b2o287b2ob2ob2o2$2090b2o$2090b2o293b2ob2ob
2o$2385b2ob2ob2o$2093b2o$2093b2o$2391b2ob2ob2o$2096b2o293b2ob2ob2o$
2096b2o2$2099b2o296b2ob2ob2o$2099b2o296b2ob2ob2o2$2102b2o$2102b2o299b
2ob2ob2o$2403b2ob2ob2o$2105b2o$2105b2o$2409b2ob2ob2o$2108b2o299b2ob2ob
2o$2108b2o2$2351b2o62b2ob2ob2o$2110b2o239b2o62b2ob2ob2o$2110b2o2$2113b
2o239bo66b2ob2ob2o$2113b2o238bo67b2ob2ob2o$2353bo2$2115b2o310b2ob2ob2o
$2115b2o232b2o3b2o71b2ob2ob2o$2352bo$2118b2o229bo5bo$2118b2o230b2ob2o
78b2ob2ob2o$2351bobo9b2o68b2ob2ob2o$2121b2o229bo9bobo$2121b2o229bo8b3o
4b2ob3o$2360b3o4bo2b4o65b2ob2o2b2o$2124b2o235b3o4b2o69b2ob2o2b2o$2124b
2o236bobo$2363b2o81b2o$2124b2o320b2o$2124b2o219b2o$2344bobo99b2o2b2o$
2346bo99b2o2b2o$2126b2o$2126b2o322b2o$2450b2o$2126b2o$2126b2o322b2o2b
2o$2450b2o2b2o2$2128b2o324b2o$2128b2o324b2o2$2128b2o324b2o2b2o$2128b2o
324b2o2b2o$2330b2o$2329bobo126b2o$2129b2o200bo16bobo107b2o$2129b2o105b
obo112bo$2235bo2bo112bo106b2o2b2o$2129b2o103b2o10bo6bo94bo2bo106b2o2b
2o$2129b2o93bo7b2o3bo8bo5bobo94b3o$2224bobo7b2o9bo6b2obo206b2o$2129b2o
76bo17bobo7bo2bo2b2o9b2ob2o3b2o200b2o$2129b2o76b2o16bo2bo7bobo2bo2b3o
5b2obo4b2o$2202b2o4b2o15bobo13b4o7bobo207b2o2b2o$2187bo10b2o2b2o4b3o
13bobo15b2o9bo208b2o2b2o$2130b2o53b3o10b2o2b2o4b2o7bobo4bo66bob2o4bo$
2130b2o52bo22b2o9b2o71b2obo3bobo165b2o$2184b2o21bo10bo24b2o9b2o42bobo
165b2o$2133b2o36b2o62bo6bo2bo7bo2bo32b5o3b2ob3o12b2o$2133b2o37bo60b2o
7b3o9b3o31bo2bo2bo8bo10bobo149b2o2b2o$2172bobo59b2o9b9o34b2o3b2o2b2ob
3o13bo149b2o2b2o$668b2ob2ob2ob2ob2ob2ob2ob2ob2ob2ob2ob2ob2ob2ob2ob2ob
2ob2ob2ob2ob2ob2ob2ob2ob2ob2ob2ob2ob2ob2ob2ob2ob2ob2ob2ob2ob2ob2ob2ob
2ob2ob2ob2ob2ob2ob2ob2ob2ob2ob2ob2ob2ob2ob2ob2ob2ob2ob2ob2ob2ob2ob2ob
2ob2ob2ob2ob2ob2ob2ob2ob2ob2ob2ob2ob2ob2ob2ob2ob2ob2ob2ob2ob2ob2ob2ob
2ob2ob2ob2ob2ob2ob2ob2ob2ob2ob2ob2ob2ob2ob2ob2ob2ob2ob2ob2ob2ob2ob2ob
2ob2ob2ob2ob2ob2ob2ob2ob2ob2ob2ob2ob2ob2ob2ob2ob2ob2ob2ob2ob2ob2ob2ob
2ob2ob2ob2ob2ob2ob2ob2ob2ob2ob2ob2ob2ob2ob2ob2ob2ob2ob2ob2ob2ob2ob2ob
2ob2ob2ob2ob2ob2ob2ob2ob2ob2ob2ob2ob2ob2ob2ob2ob2ob2ob2ob2ob2ob2ob2ob
2ob2ob2ob2ob2ob2ob2ob2ob2ob2ob2ob2ob2ob2ob2ob2ob2ob2ob2ob2ob2ob2ob2ob
2ob2ob2ob2ob2ob2ob2ob2ob2ob2ob2ob2ob2ob2ob2ob2ob2ob2ob2ob2ob2ob2ob2ob
2ob2ob2ob2ob2ob2ob2ob2ob2ob2ob2ob2ob2ob2ob2ob2ob2ob2ob2ob2ob2ob2ob2ob
2ob2ob2ob2ob2ob2ob2ob2ob2ob2ob2ob2ob2ob2ob2ob2ob2ob2ob2ob2ob2ob2ob2ob
2ob2ob2ob2ob2ob2ob2ob2ob2ob2ob2ob2ob2ob2ob2ob2ob2ob2ob2ob2ob2ob2ob2ob
2ob2ob2ob2ob2ob2ob2ob2ob2ob2ob2ob2ob2ob2ob2ob2ob2ob2ob2ob2ob2ob2ob2ob
2ob2ob2ob2ob2ob2ob2ob2ob2ob2ob2ob2ob2ob2ob2ob2ob2ob2ob2ob2ob2ob2ob2ob
2ob2ob2ob2ob2ob2ob2ob2ob2ob2ob2ob2ob2ob2ob2ob2ob2ob2ob2ob2ob2ob2ob2ob
2ob2ob2ob2ob2ob2ob2ob2ob2ob2ob2ob2ob2ob2ob2ob2ob2ob2ob2ob2ob2ob2ob2ob
2ob2ob2ob2ob2ob2ob2ob2ob2ob2ob2ob2ob2ob2ob2ob2ob2ob2ob2ob2ob2ob2ob2ob
2ob2ob2ob2ob2ob2ob2ob2ob2ob2ob2ob2ob2ob2ob2ob2ob2ob2ob2ob2ob2ob2ob2ob
2ob2ob2ob2ob2ob2ob2ob2ob2ob2ob2ob2ob2ob2ob2ob2ob2ob2ob2ob2ob2ob2ob2ob
2ob2ob2ob2ob2ob2ob2ob2ob2ob2ob2ob2ob2ob2ob2ob2ob2ob2ob2ob2ob2ob2ob2ob
2ob2ob2ob2ob2ob2ob2ob2ob2ob2ob2ob2o2b2o38b2o69bo2b5o2bo42b2obo$668b2ob
2ob2ob2ob2ob2ob2ob2ob2ob2ob2ob2ob2ob2ob2ob2ob2ob2ob2ob2ob2ob2ob2ob2ob
2ob2ob2ob2ob2ob2ob2ob2ob2ob2ob2ob2ob2ob2ob2ob2ob2ob2ob2ob2ob2ob2ob2ob
2ob2ob2ob2ob2ob2ob2ob2ob2ob2ob2ob2ob2ob2ob2ob2ob2ob2ob2ob2ob2ob2ob2ob
2ob2ob2ob2ob2ob2ob2ob2ob2ob2ob2ob2ob2ob2ob2ob2ob2ob2ob2ob2ob2ob2ob2ob
2ob2ob2ob2ob2ob2ob2ob2ob2ob2ob2ob2ob2ob2ob2ob2ob2ob2ob2ob2ob2ob2ob2ob
2ob2ob2ob2ob2ob2ob2ob2ob2ob2ob2ob2ob2ob2ob2ob2ob2ob2ob2ob2ob2ob2ob2ob
2ob2ob2ob2ob2ob2ob2ob2ob2ob2ob2ob2ob2ob2ob2ob2ob2ob2ob2ob2ob2ob2ob2ob
2ob2ob2ob2ob2ob2ob2ob2ob2ob2ob2ob2ob2ob2ob2ob2ob2ob2ob2ob2ob2ob2ob2ob
2ob2ob2ob2ob2ob2ob2ob2ob2ob2ob2ob2ob2ob2ob2ob2ob2ob2ob2ob2ob2ob2ob2ob
2ob2ob2ob2ob2ob2ob2ob2ob2ob2ob2ob2ob2ob2ob2ob2ob2ob2ob2ob2ob2ob2ob2ob
2ob2ob2ob2ob2ob2ob2ob2ob2ob2ob2ob2ob2ob2ob2ob2ob2ob2ob2ob2ob2ob2ob2ob
2ob2ob2ob2ob2ob2ob2ob2ob2ob2ob2ob2ob2ob2ob2ob2ob2ob2ob2ob2ob2ob2ob2ob
2ob2ob2ob2ob2ob2ob2ob2ob2ob2ob2ob2ob2ob2ob2ob2ob2ob2ob2ob2ob2ob2ob2ob
2ob2ob2ob2ob2ob2ob2ob2ob2ob2ob2ob2ob2ob2ob2ob2ob2ob2ob2ob2ob2ob2ob2ob
2ob2ob2ob2ob2ob2ob2ob2ob2ob2ob2ob2ob2ob2ob2ob2ob2ob2ob2ob2ob2ob2ob2ob
2ob2ob2ob2ob2ob2ob2ob2ob2ob2ob2ob2ob2ob2ob2ob2ob2ob2ob2ob2ob2ob2ob2ob
2ob2ob2ob2ob2ob2ob2ob2ob2ob2ob2ob2ob2ob2ob2ob2ob2ob2ob2ob2ob2ob2ob2ob
2ob2ob2ob2ob2ob2ob2ob2ob2ob2ob2ob2ob2ob2ob2ob2ob2ob2ob2ob2ob2ob2ob2ob
2ob2ob2ob2ob2ob2ob2ob2ob2ob2ob2ob2ob2ob2ob2ob2ob2ob2ob2ob2ob2ob2ob2ob
2ob2ob2ob2ob2ob2ob2ob2ob2ob2ob2ob2ob2ob2ob2ob2ob2ob2ob2ob2ob2ob2ob2ob
2ob2ob2ob2ob2ob2ob2ob2ob2ob2ob2ob2ob2ob2ob2ob2ob2ob2ob2ob2ob2ob2ob2ob
2ob2ob2ob2o2b2o46b2o42bo18b2o2b3o2b2o49bo165b2o$2180bo2bo42b2o74b3o
165b2o$2181b2o42b2o74bo$676bo2bo26bo2bo26bo2bo26bo2bo26bo2bo26bo2bo26b
o2bo26bo2bo26bo2bo26bo2bo26bo2bo26bo2bo26bo2bo26bo2bo26bo2bo26bo2bo26b
o2bo26bo2bo26bo2bo26bo2bo26bo2bo26bo2bo26bo2bo26bo2bo26bo2bo26bo2bo26b
o2bo26bo2bo26bo2bo26bo2bo26bo2bo26bo2bo26bo2bo26bo2bo26bo2bo26bo2bo26b
o2bo26bo2bo26bo2bo26bo2bo26bo2bo26bo2bo26bo2bo26bo2bo26bo2bo26bo2bo26b
o2bo26bo2bo26bo2bo26bo2bo26bo2bo56bo2bo26bo2bo31b2o167b2o$680bo29bo29b
o29bo29bo29bo29bo29bo29bo29bo29bo29bo29bo29bo29bo29bo29bo29bo29bo29bo
29bo29bo29bo29bo29bo29bo29bo29bo29bo29bo29bo29bo29bo29bo29bo29bo29bo
29bo29bo29bo29bo29bo29bo29bo29bo29bo29bo29bo29bo29bo29bo59bo29bo199b2o
$676bo3bo25bo3bo25bo3bo25bo3bo25bo3bo25bo3bo25bo3bo25bo3bo25bo3bo25bo
3bo25bo3bo25bo3bo25bo3bo25bo3bo25bo3bo25bo3bo25bo3bo25bo3bo25bo3bo25bo
3bo25bo3bo25bo3bo25bo3bo25bo3bo25bo3bo25bo3bo25bo3bo25bo3bo25bo3bo25bo
3bo25bo3bo25bo3bo25bo3bo25bo3bo25bo3bo25bo3bo25bo3bo25bo3bo25bo3bo25bo
3bo25bo3bo25bo3bo25bo3bo25bo3bo25bo3bo25bo3bo25bo3bo25bo3bo25bo3bo25bo
3bo25bo3bo55bo3bo25bo3bo71b2o15bo$677b4o26b4o26b4o26b4o26b4o26b4o26b4o
26b4o26b4o26b4o26b4o26b4o26b4o26b4o26b4o26b4o26b4o26b4o26b4o26b4o26b4o
26b4o26b4o26b4o26b4o26b4o26b4o26b4o26b4o26b4o26b4o26b4o26b4o26b4o26b4o
26b4o26b4o26b4o26b4o26b4o26b4o26b4o26b4o26b4o26b4o26b4o26b4o26b4o26b4o
26b4o26b4o56b4o26bo31bo41bobo13b3o110b2o2b2o$2184b2o82bo29bobo40bo14bo
113b2o2b2o$2184bo33b2o49b2obo24b2ob2o36b2ob2o13b2o$2185b3o28bo3bo5bo2b
3o38bobo24bo2bo38bobo132b2o$668b2ob2ob2ob2ob2ob2ob2ob2ob2ob2ob2ob2ob2o
b2ob2ob2ob2ob2ob2ob2ob2ob2ob2ob2ob2ob2ob2ob2ob2ob2ob2ob2ob2ob2ob2ob2ob
2ob2ob2ob2ob2ob2ob2ob2ob2ob2ob2ob2ob2ob2ob2ob2ob2ob2ob2ob2ob2ob2ob2ob
2ob2ob2ob2ob2ob2ob2ob2ob2ob2ob2ob2ob2ob2ob2ob2ob2ob2ob2ob2ob2ob2ob2ob
2ob2ob2ob2ob2ob2ob2ob2ob2ob2ob2ob2ob2ob2ob2ob2ob2ob2ob2ob2ob2ob2ob2ob
2ob2ob2ob2ob2ob2ob2ob2ob2ob2ob2ob2ob2ob2ob2ob2ob2ob2ob2ob2ob2ob2ob2ob
2ob2ob2ob2ob2ob2ob2ob2ob2ob2ob2ob2ob2ob2ob2ob2ob2ob2ob2ob2ob2ob2ob2ob
2ob2ob2ob2ob2ob2ob2ob2ob2ob2ob2ob2ob2ob2ob2ob2ob2ob2ob2ob2ob2ob2ob2ob
2ob2ob2ob2ob2ob2ob2ob2ob2ob2ob2ob2ob2ob2ob2ob2ob2ob2ob2ob2ob2ob2ob2ob
2ob2ob2ob2ob2ob2ob2ob2ob2ob2ob2ob2ob2ob2ob2ob2ob2ob2ob2ob2ob2ob2ob2ob
2ob2ob2ob2ob2ob2ob2ob2ob2ob2ob2ob2ob2ob2ob2ob2ob2ob2ob2ob2ob2ob2ob2ob
2ob2ob2ob2ob2ob2ob2ob2ob2ob2ob2ob2ob2ob2ob2ob2ob2ob2ob2ob2ob2ob2ob2ob
2ob2ob2ob2ob2ob2ob2ob2ob2ob2ob2ob2ob2ob2ob2ob2ob2ob2ob2ob2ob2ob2ob2ob
2ob2ob2ob2ob2ob2ob2ob2ob2ob2ob2ob2ob2ob2ob2ob2ob2ob2ob2ob2ob2ob2ob2ob
2ob2ob2ob2ob2ob2ob2ob2ob2ob2ob2ob2ob2ob2ob2ob2ob2ob2ob2ob2ob2ob2ob2ob
2ob2ob2ob2ob2ob2ob2ob2ob2ob2ob2ob2ob2ob2ob2ob2ob2ob2ob2ob2ob2ob2ob2ob
2ob2ob2ob2ob2ob2ob2ob2ob2ob2ob2ob2ob2ob2ob2ob2ob2ob2ob2ob2ob2ob2ob2ob
2ob2ob2ob2ob2ob2ob2ob2ob2ob2ob2ob2ob2ob2ob2ob2ob2ob2ob2ob2ob2ob2ob2ob
2ob2ob2ob2ob2ob2ob2ob2ob2ob2ob2ob2ob2ob2ob2ob2ob2ob2ob2ob2ob2ob2ob2ob
2ob2ob2ob2ob2ob2ob2ob2ob2ob2ob2ob2ob2ob2ob2ob2ob2ob2ob2ob2ob2ob2ob2ob
2ob2ob2ob2ob2ob2ob2ob2ob2ob2ob2ob2ob2ob2ob2ob2ob2ob2ob2ob2ob2ob2ob2ob
2ob2ob2ob2ob2ob2ob2ob2ob2ob2ob2ob2ob2ob2ob2o56bo22b2o3bo5bo9bo3bo62b2o
38bo2bobo130b2o$668b2ob2ob2ob2ob2ob2ob2ob2ob2ob2ob2ob2ob2ob2ob2ob2ob2o
b2ob2ob2ob2ob2ob2ob2ob2ob2ob2ob2ob2ob2ob2ob2ob2ob2ob2ob2ob2ob2ob2ob2ob
2ob2ob2ob2ob2ob2ob2ob2ob2ob2ob2ob2ob2ob2ob2ob2ob2ob2ob2ob2ob2ob2ob2ob
2ob2ob2ob2ob2ob2ob2ob2ob2ob2ob2ob2ob2ob2ob2ob2ob2ob2ob2ob2ob2ob2ob2ob
2ob2ob2ob2ob2ob2ob2ob2ob2ob2ob2ob2ob2ob2ob2ob2ob2ob2ob2ob2ob2ob2ob2ob
2ob2ob2ob2ob2ob2ob2ob2ob2ob2ob2ob2ob2ob2ob2ob2ob2ob2ob2ob2ob2ob2ob2ob
2ob2ob2ob2ob2ob2ob2ob2ob2ob2ob2ob2ob2ob2ob2ob2ob2ob2ob2ob2ob2ob2ob2ob
2ob2ob2ob2ob2ob2ob2ob2ob2ob2ob2ob2ob2ob2ob2ob2ob2ob2ob2ob2ob2ob2ob2ob
2ob2ob2ob2ob2ob2ob2ob2ob2ob2ob2ob2ob2ob2ob2ob2ob2ob2ob2ob2ob2ob2ob2ob
2ob2ob2ob2ob2ob2ob2ob2ob2ob2ob2ob2ob2ob2ob2ob2ob2ob2ob2ob2ob2ob2ob2ob
2ob2ob2ob2ob2ob2ob2ob2ob2ob2ob2ob2ob2ob2ob2ob2ob2ob2ob2ob2ob2ob2ob2ob
2ob2ob2ob2ob2ob2ob2ob2ob2ob2ob2ob2ob2ob2ob2ob2ob2ob2ob2ob2ob2ob2ob2ob
2ob2ob2ob2ob2ob2ob2ob2ob2ob2ob2ob2ob2ob2ob2ob2ob2ob2ob2ob2ob2ob2ob2ob
2ob2ob2ob2ob2ob2ob2ob2ob2ob2ob2ob2ob2ob2ob2ob2ob2ob2ob2ob2ob2ob2ob2ob
2ob2ob2ob2ob2ob2ob2ob2ob2ob2ob2ob2ob2ob2ob2ob2ob2ob2ob2ob2ob2ob2ob2ob
2ob2ob2ob2ob2ob2ob2ob2ob2ob2ob2ob2ob2ob2ob2ob2ob2ob2ob2ob2ob2ob2ob2ob
2ob2ob2ob2ob2ob2ob2ob2ob2ob2ob2ob2ob2ob2ob2ob2ob2ob2ob2ob2ob2ob2ob2ob
2ob2ob2ob2ob2ob2ob2ob2ob2ob2ob2ob2ob2ob2ob2ob2ob2ob2ob2ob2ob2ob2ob2ob
2ob2ob2ob2ob2ob2ob2ob2ob2ob2ob2ob2ob2ob2ob2ob2ob2ob2ob2ob2ob2ob2ob2ob
2ob2ob2ob2ob2ob2ob2ob2ob2ob2ob2ob2ob2ob2ob2ob2ob2ob2ob2ob2ob2ob2ob2ob
2ob2ob2ob2ob2ob2ob2ob2ob2ob2ob2ob2ob2ob2ob2ob2ob2ob2ob2ob2ob2ob2ob2ob
2ob2ob2ob2ob2ob2ob2ob2ob2ob2ob2o2b2o45b2obo26b2o2b2obo3bo8bo4bobo52b2o
46b2o2b2o$2133b2o36b2o3b2o2b2ob3o29bo5bo16b2o4b2o43bobo182b2o$2171bo2b
o2bo8bo29bo3bo17b2o4b2o43bo184b2o$2133b2o37b5o3b2ob3o32b2o18b2o48b2o
51bob2o8b2o$2133b2o46bobo51bobo63b2o36b3ob2o7b2obo118b2o2b2o$2174b2obo
3bobo51bo11bo6bo46bo36bo12bo3bo118b2o2b2o$2133b2o39bob2o4bo63b2o6b2o
46b3o34b3ob2o7b3o$2133b2o110b3o6b3o47bo36bobo3b2o4bo6b2o116b2o$2246b2o
6b2o6b3o76bobo2bobo11bobo115b2o$2133b2o112bo6bo7bo79bo3bo15bo$2133b2o
128bo81b2o15b2o114b2o$2478b2o$2133b2o$2133b2o125bo217b2o$2259b3o216b2o
$2133b2o123b2ob2o$2133b2o122b3ob3o214b2o$2257b3ob3o16b2o6b2o188b2o$
2133b2o122b3ob3o14bo4bo2bo4bo$2133b2o122b3ob3o8b2o4bo4bo2bo4bo$2244bob
2o4bo5b2ob2o10b2o3bo4bo2bo4bo50bo136b2ob2ob2ob2ob2ob2ob2ob2ob2ob2ob2ob
2ob2ob2ob2ob2ob2ob2ob2ob2ob2ob2ob2ob2ob2ob2ob2ob2ob2ob2ob2ob2ob2ob2ob
2ob2ob2ob2ob2ob2ob2ob2ob2ob2ob2ob2ob2ob2ob2ob2ob2ob2ob2ob2ob2ob2ob2ob
2ob2ob2ob2ob2ob2ob2ob2ob2ob2ob2ob2ob2ob2ob2ob2ob2ob2ob2ob2ob2ob2ob2ob
2ob2ob2ob2ob2ob2ob2ob2ob2ob2ob2ob2ob2ob2ob2ob2ob2ob2ob2ob2ob2ob2ob2ob
2ob2ob2ob2ob2ob2ob2ob2ob2ob2ob2ob2ob2ob2ob2ob2ob2ob2ob2ob2ob2ob2ob2ob
2ob2ob2ob2ob2ob2ob2ob2ob2ob2ob2ob2ob2ob2ob2ob2ob2ob2ob2ob2ob2ob2ob2ob
2ob2ob2ob2ob2ob2o$2133b2o48b2o59b2obo3bobo5b3o10bo7b2o6b2o51bo137b2ob
2ob2ob2ob2ob2ob2ob2ob2ob2ob2ob2ob2ob2ob2ob2ob2ob2ob2ob2ob2ob2ob2ob2ob
2ob2ob2ob2ob2ob2ob2ob2ob2ob2ob2ob2ob2ob2ob2ob2ob2ob2ob2ob2ob2ob2ob2ob
2ob2ob2ob2ob2ob2ob2ob2ob2ob2ob2ob2ob2ob2ob2ob2ob2ob2ob2ob2ob2ob2ob2ob
2ob2ob2ob2ob2ob2ob2ob2ob2ob2ob2ob2ob2ob2ob2ob2ob2ob2ob2ob2ob2ob2ob2ob
2ob2ob2ob2ob2ob2ob2ob2ob2ob2ob2ob2ob2ob2ob2ob2ob2ob2ob2ob2ob2ob2ob2ob
2ob2ob2ob2ob2ob2ob2ob2ob2ob2ob2ob2ob2ob2ob2ob2ob2ob2ob2ob2ob2ob2ob2ob
2ob2ob2ob2ob2ob2ob2ob2ob2ob2ob2ob2ob2ob2ob2ob2o$2133b2o48bobo65bobo6bo
80b3o$2171bo12b3o55b5o3b2ob3o$2133b2o33b4o3b2o8b3o6b2o45bo2bo2bo8bo17b
3o81bo2bo26bo2bo26bo2bo26bo2bo26bo2bo26bo2bo26bo2bo26bo2bo26bo2bo26bo
2bo26bo2bo26bo2bo26bo2bo26bo2bo26bo2bo26bo2bo26bo2bo26bo2bo26bo2bo26bo
2bo$2133b2o32b4o3b2o8b3o7b2o45b2o3b2o2b2ob3o17bo3bo51bobo30bo29bo29bo
29bo29bo29bo29bo29bo29bo29bo29bo29bo29bo29bo29bo29bo29bo29bo29bo29bo$
2160b2o5bo2bo3b2obob2o2bobo64b2obo19bo3bo51bo2bo25bo3bo25bo3bo25bo3bo
25bo3bo25bo3bo25bo3bo25bo3bo25bo3bo25bo3bo25bo3bo25bo3bo25bo3bo25bo3bo
25bo3bo25bo3bo25bo3bo25bo3bo25bo3bo25bo3bo25bo3bo$2133b2o25b2o5b4o4bob
ob2o2b2o72bo16b3o43b2o10b2o25b4o26b4o26b4o26b4o26b4o26b4o26b4o26b4o26b
4o26b4o26b4o26b4o26b4o26b4o26b4o26b4o26b4o26b4o26b4o26b4o$2133b2o33b4o
3bob2o76b3o62b2o8bo3b2o$2171bo82bo70b2o5b2o$2133b2o49b2o68b2o68bo4bo2b
o$2133b2o48b4o13b2o28b2o97bobo147b2ob2ob2ob2ob2ob2ob2ob2ob2ob2ob2ob2ob
2ob2ob2ob2ob2ob2ob2ob2ob2ob2ob2ob2ob2ob2ob2ob2ob2ob2ob2ob2ob2ob2ob2ob
2ob2ob2ob2ob2ob2ob2ob2ob2ob2ob2ob2ob2ob2ob2ob2ob2ob2ob2ob2ob2ob2ob2ob
2ob2ob2ob2ob2ob2ob2ob2ob2ob2ob2ob2ob2ob2ob2ob2ob2ob2ob2ob2ob2ob2ob2ob
2ob2ob2ob2ob2ob2ob2ob2ob2ob2ob2ob2ob2ob2ob2ob2ob2ob2ob2ob2ob2ob2ob2ob
2ob2ob2ob2ob2ob2ob2ob2ob2ob2ob2ob2ob2ob2ob2ob2ob2ob2ob2ob2ob2ob2ob2ob
2ob2ob2ob2ob2ob2ob2ob2ob2ob2ob2ob2ob2ob2ob2ob2ob2ob2ob2ob2ob2ob2ob2ob
2ob2ob2ob2ob2o$2183b2ob2o10b2ob2o25b2ob2o41b3o202b2ob2ob2ob2ob2ob2ob2o
b2ob2ob2ob2ob2ob2ob2ob2ob2ob2ob2ob2ob2ob2ob2ob2ob2ob2ob2ob2ob2ob2ob2ob
2ob2ob2ob2ob2ob2ob2ob2ob2ob2ob2ob2ob2ob2ob2ob2ob2ob2ob2ob2ob2ob2ob2ob
2ob2ob2ob2ob2ob2ob2ob2ob2ob2ob2ob2ob2ob2ob2ob2ob2ob2ob2ob2ob2ob2ob2ob
2ob2ob2ob2ob2ob2ob2ob2ob2ob2ob2ob2ob2ob2ob2ob2ob2ob2ob2ob2ob2ob2ob2ob
2ob2ob2ob2ob2ob2ob2ob2ob2ob2ob2ob2ob2ob2ob2ob2ob2ob2ob2ob2ob2ob2ob2ob
2ob2ob2ob2ob2ob2ob2ob2ob2ob2ob2ob2ob2ob2ob2ob2ob2ob2ob2ob2ob2ob2ob2ob
2ob2ob2ob2ob2ob2ob2ob2ob2ob2o$2133b2o50b2o11b4o26b4o15b3o23bo3bo$2133b
2o64b2o28b2o16bobo23bo3bo$2246bo2bo24b3o201b2o$2133b2o111bobo87bo141b
2o$2133b2o38b3o18b2o7b2o41b3o86b3o$2175bo18bo2b5o2bo30b2o6b2o89b5o139b
2o$2133b2o39bo20b2o5b2o31bobo4bobo88bobobobo138b2o$2133b2o57b3o9b3o30b
o4bo90b2o3b2o$2185b3o4bo2bobo3bobo2bo30b2o2b2o235b2o$2133b2o22bobo25bo
7b2o4bo4b2o48b2o222b2o$2133b2o20bo3bo5b3o18bo67bo81bo$2148b2o5bo7bobo
2bo2b2o82b3o77bobo140b2o$2133b2o13b2o4bo4bo7b2o2bo2bo24b2o56bo77bobo
140b2o$2133b2o20bo19bo18bo4b2o135bo$2155bo3bo2b3o10bo12b2ob5o6b2o6b2o
123b2o137b2o2b2o$2133b2o22bobo15bo11bo4b2o2bo5b3o5b2o123b2o137b2o2b2o$
2133b2o36bo2bo11bo8b2o5b2o131b2o$2171b2o13bo7bo4b2o23bo249b2o$2133b2o
51bo12b2o22b3o248b2o$2133b2o52bo34b2obo$2188b2o32b3o249b2o$2133b2o88b
2o249b2o$2133b2o$2470b2o2b2o$2133b2o335b2o2b2o$2133b2o$2470b2o$2133b2o
335b2o$2133b2o$2ob2ob2ob2ob2ob2ob2ob2ob2ob2ob2ob2ob2ob2ob2ob2ob2ob2ob
2ob2ob2ob2ob2ob2ob2ob2ob2ob2ob2ob2ob2ob2ob2ob2ob2ob2ob2ob2ob2ob2ob2ob
2ob2ob2ob2ob2ob2ob2ob2ob2ob2ob2ob2ob2ob2ob2ob2ob2ob2ob2ob2ob2ob2ob2ob
2ob2ob2ob2ob2ob2ob2ob2ob2ob2ob2ob2ob2ob2ob2ob2ob2ob2ob2ob2ob2ob2ob2ob
2ob2ob2ob2ob2ob2ob2ob2ob2ob2ob2ob2ob2ob2ob2ob2ob2ob2ob2ob2ob2ob2ob2ob
2ob2ob2ob2ob2ob2ob2ob2ob2ob2ob2ob2ob2ob2ob2ob2ob2ob2ob2ob2ob2ob2ob2ob
2ob2ob2ob2ob2ob2ob2ob2ob2ob2ob2ob2ob2ob2ob2ob2ob2ob2ob2ob2ob2ob2ob2ob
2ob2ob2ob2ob2ob2ob2ob2ob2ob2ob2ob2ob2ob2ob2ob2ob2ob2ob2ob2ob2ob2ob2ob
2ob2ob2ob2ob2ob2ob2ob2ob2ob2ob2ob2ob2ob2ob2ob2ob2ob2ob2ob2ob2ob2ob2ob
2ob2ob2ob2ob2ob2ob2ob2ob2ob2ob2ob2ob2ob2ob2ob2ob2ob2ob2ob2ob2ob2ob2obo
869b2ob2ob2ob2ob2ob2ob2ob2ob2ob2ob2ob2ob2ob2ob2ob2ob2ob2ob2ob2ob2ob2ob
2ob2ob2ob2ob2ob2ob2ob2ob2ob2ob2ob2ob2ob2ob2ob2ob2ob2ob2ob2ob2ob2ob2ob
2ob2ob2ob2ob2ob2ob2ob2ob2ob2ob2ob2ob2ob2ob2ob2ob2ob2ob2ob2ob2ob2ob2ob
2ob2ob2ob2ob2ob2ob2ob2ob2ob2ob2ob2ob2ob2ob2ob2ob2ob2ob2ob2ob2ob2ob2ob
2ob2ob2ob2ob2ob2ob2ob2ob2ob2ob2ob2ob2ob2ob2ob2ob2ob2ob2ob2ob2ob2ob2ob
2ob2ob2ob2ob2ob2ob2ob2ob2ob2ob2ob2ob2ob2ob2ob2ob2ob2ob2ob2ob2ob2ob2ob
2ob2ob2ob2ob2ob2ob2ob2ob2ob2ob2ob2ob2ob2ob2ob2ob2ob2ob2ob2ob2ob2ob2ob
2ob2ob2ob2ob2ob2ob2ob2ob2ob2ob2ob2ob2ob2ob2ob2ob2ob2ob2ob2ob2ob2ob2ob
2ob2ob2ob2ob2ob2ob2ob2ob2ob2ob2o3b2o339b2o$2ob2ob2ob2ob2ob2ob2ob2ob2ob
2ob2ob2ob2ob2ob2ob2ob2ob2ob2ob2ob2ob2ob2ob2ob2ob2ob2ob2ob2ob2ob2ob2ob
2ob2ob2ob2ob2ob2ob2ob2ob2ob2ob2ob2ob2ob2ob2ob2ob2ob2ob2ob2ob2ob2ob2ob
2ob2ob2ob2ob2ob2ob2ob2ob2ob2ob2ob2ob2ob2ob2ob2ob2ob2ob2ob2ob2ob2ob2ob
2ob2ob2ob2ob2ob2ob2ob2ob2ob2ob2ob2ob2ob2ob2ob2ob2ob2ob2ob2ob2ob2ob2ob
2ob2ob2ob2ob2ob2ob2ob2ob2ob2ob2ob2ob2ob2ob2ob2ob2ob2ob2ob2ob2ob2ob2ob
2ob2ob2ob2ob2ob2ob2ob2ob2ob2ob2ob2ob2ob2ob2ob2ob2ob2ob2ob2ob2ob2ob2ob
2ob2ob2ob2ob2ob2ob2ob2ob2ob2ob2ob2ob2ob2ob2ob2ob2ob2ob2ob2ob2ob2ob2ob
2ob2ob2ob2ob2ob2ob2ob2ob2ob2ob2ob2ob2ob2ob2ob2ob2ob2ob2ob2ob2ob2ob2ob
2ob2ob2ob2ob2ob2ob2ob2ob2ob2ob2ob2ob2ob2ob2ob2ob2ob2ob2ob2ob2ob2ob2ob
2ob2ob2ob2ob2ob2ob2ob2ob2obo869b2ob2ob2ob2ob2ob2ob2ob2ob2ob2ob2ob2ob2o
b2ob2ob2ob2ob2ob2ob2ob2ob2ob2ob2ob2ob2ob2ob2ob2ob2ob2ob2ob2ob2ob2ob2ob
2ob2ob2ob2ob2ob2ob2ob2ob2ob2ob2ob2ob2ob2ob2ob2ob2ob2ob2ob2ob2ob2ob2ob
2ob2ob2ob2ob2ob2ob2ob2ob2ob2ob2ob2ob2ob2ob2ob2ob2ob2ob2ob2ob2ob2ob2ob
2ob2ob2ob2ob2ob2ob2ob2ob2ob2ob2ob2ob2ob2ob2ob2ob2ob2ob2ob2ob2ob2ob2ob
2ob2ob2ob2ob2ob2ob2ob2ob2ob2ob2ob2ob2ob2ob2ob2ob2ob2ob2ob2ob2ob2ob2ob
2ob2ob2ob2ob2ob2ob2ob2ob2ob2ob2ob2ob2ob2ob2ob2ob2ob2ob2ob2ob2ob2ob2ob
2ob2ob2ob2ob2ob2ob2ob2ob2ob2ob2ob2ob2ob2ob2ob2ob2ob2ob2ob2ob2ob2ob2ob
2ob2ob2ob2ob2ob2ob2ob2ob2ob2ob2ob2ob2ob2ob2ob2ob2ob2ob2ob2o3b2o339b2o
2$2466b2o2b2o$2466b2o2b2o$8b2o28b2o28b2o28b2o28b2o28b2o28b2o28b2o28b2o
28b2o28b2o28b2o28b2o28b2o28b2o28b2o28b2o28b2o28b2o28b2o28b2o28b2o28b2o
898b2o28b2o28b2o28b2o28b2o28b2o28b2o28b2o28b2o28b2o28b2o28b2o28b2o28b
2o28b2o28b2o28b2o28b2o28b2o28b2o28b2o28b2o28b2o$6b2ob2o25b2ob2o25b2ob
2o25b2ob2o25b2ob2o25b2ob2o25b2ob2o25b2ob2o25b2ob2o25b2ob2o25b2ob2o25b
2ob2o25b2ob2o25b2ob2o25b2ob2o25b2ob2o25b2ob2o25b2ob2o25b2ob2o25b2ob2o
25b2ob2o25b2ob2o25b2ob2o895b2ob2o25b2ob2o25b2ob2o25b2ob2o25b2ob2o25b2o
b2o25b2ob2o25b2ob2o25b2ob2o25b2ob2o25b2ob2o25b2ob2o25b2ob2o25b2ob2o25b
2ob2o25b2ob2o25b2ob2o25b2ob2o25b2ob2o25b2ob2o25b2ob2o25b2ob2o25b2ob2o
235b2o$6b4o26b4o26b4o26b4o26b4o26b4o26b4o26b4o26b4o26b4o26b4o26b4o26b
4o26b4o26b4o26b4o26b4o26b4o26b4o26b4o26b4o26b4o26b4o896b4o26b4o26b4o
26b4o26b4o26b4o26b4o26b4o26b4o26b4o26b4o26b4o26b4o26b4o26b4o26b4o26b4o
26b4o26b4o26b4o26b4o26b4o26b4o236b2o$7b2o28b2o28b2o28b2o28b2o28b2o28b
2o28b2o28b2o28b2o28b2o28b2o28b2o28b2o28b2o28b2o28b2o28b2o28b2o28b2o28b
2o28b2o28b2o898b2o28b2o28b2o28b2o28b2o28b2o28b2o28b2o28b2o28b2o28b2o
28b2o28b2o28b2o28b2o28b2o28b2o28b2o28b2o28b2o28b2o28b2o28b2o$2239b2o
221b2o2b2o$2238b2o222b2o2b2o$2ob2ob2ob2ob2ob2ob2ob2ob2ob2ob2ob2ob2ob2o
b2ob2ob2ob2ob2ob2ob2ob2ob2ob2ob2ob2ob2ob2ob2ob2ob2ob2ob2ob2ob2ob2ob2ob
2ob2ob2ob2ob2ob2ob2ob2ob2ob2ob2ob2ob2ob2ob2ob2ob2ob2ob2ob2ob2ob2ob2ob
2ob2ob2ob2ob2ob2ob2ob2ob2ob2ob2ob2ob2ob2ob2ob2ob2ob2ob2ob2ob2ob2ob2ob
2ob2ob2ob2ob2ob2ob2ob2ob2ob2ob2ob2ob2ob2ob2ob2ob2ob2ob2ob2ob2ob2ob2ob
2ob2ob2ob2ob2ob2ob2ob2ob2ob2ob2ob2ob2ob2ob2ob2ob2ob2ob2ob2ob2ob2ob2ob
2ob2ob2ob2ob2ob2ob2ob2ob2ob2ob2ob2ob2ob2ob2ob2ob2ob2ob2ob2ob2ob2ob2ob
2ob2ob2ob2ob2ob2ob2ob2ob2ob2ob2ob2ob2ob2ob2ob2ob2ob2ob2ob2ob2ob2ob2ob
2ob2ob2ob2ob2ob2ob2ob2ob2ob2ob2ob2ob2ob2ob2ob2ob2ob2ob2ob2ob2ob2ob2ob
2ob2ob2ob2ob2ob2ob2ob2ob2ob2ob2ob2ob2ob2ob2ob2ob2ob2ob2ob2ob2ob2ob2ob
2ob2ob2ob2obo869b2ob2ob2ob2ob2ob2ob2ob2ob2ob2ob2ob2ob2ob2ob2ob2ob2ob2o
b2ob2ob2ob2ob2ob2ob2ob2ob2ob2ob2ob2ob2ob2ob2ob2ob2ob2ob2ob2ob2ob2ob2ob
2ob2ob2ob2ob2ob2ob2ob2ob2ob2ob2ob2ob2ob2ob2ob2ob2ob2ob2ob2ob2ob2ob2ob
2ob2ob2ob2ob2ob2ob2ob2ob2ob2ob2ob2ob2ob2ob2ob2ob2ob2ob2ob2ob2ob2ob2ob
2ob2ob2ob2ob2ob2ob2ob2ob2ob2ob2ob2ob2ob2ob2ob2ob2ob2ob2ob2ob2ob2ob2ob
2ob2ob2ob2ob2ob2ob2ob2ob2ob2ob2ob2ob2ob2ob2ob2ob2ob2ob2ob2ob2ob2ob2ob
2ob2ob2ob2ob2ob2ob2ob2ob2ob2ob2ob2ob2ob2ob2ob2ob2ob2ob2ob2ob2ob2ob2ob
2ob2ob2ob2ob2ob2ob2ob2ob2ob2ob2ob2ob2ob2ob2ob2ob2ob2ob2ob2ob2ob2ob2ob
2ob2ob2ob2ob2ob2ob2ob2ob2ob2ob2ob2ob2ob2ob2o3b2o109bo$2ob2ob2ob2ob2ob
2ob2ob2ob2ob2ob2ob2ob2ob2ob2ob2ob2ob2ob2ob2ob2ob2ob2ob2ob2ob2ob2ob2ob
2ob2ob2ob2ob2ob2ob2ob2ob2ob2ob2ob2ob2ob2ob2ob2ob2ob2ob2ob2ob2ob2ob2ob
2ob2ob2ob2ob2ob2ob2ob2ob2ob2ob2ob2ob2ob2ob2ob2ob2ob2ob2ob2ob2ob2ob2ob
2ob2ob2ob2ob2ob2ob2ob2ob2ob2ob2ob2ob2ob2ob2ob2ob2ob2ob2ob2ob2ob2ob2ob
2ob2ob2ob2ob2ob2ob2ob2ob2ob2ob2ob2ob2ob2ob2ob2ob2ob2ob2ob2ob2ob2ob2ob
2ob2ob2ob2ob2ob2ob2ob2ob2ob2ob2ob2ob2ob2ob2ob2ob2ob2ob2ob2ob2ob2ob2ob
2ob2ob2ob2ob2ob2ob2ob2ob2ob2ob2ob2ob2ob2ob2ob2ob2ob2ob2ob2ob2ob2ob2ob
2ob2ob2ob2ob2ob2ob2ob2ob2ob2ob2ob2ob2ob2ob2ob2ob2ob2ob2ob2ob2ob2ob2ob
2ob2ob2ob2ob2ob2ob2ob2ob2ob2ob2ob2ob2ob2ob2ob2ob2ob2ob2ob2ob2ob2ob2ob
2ob2ob2ob2ob2ob2ob2ob2ob2ob2ob2ob2ob2obo869b2ob2ob2ob2ob2ob2ob2ob2ob2o
b2ob2ob2ob2ob2ob2ob2ob2ob2ob2ob2ob2ob2ob2ob2ob2ob2ob2ob2ob2ob2ob2ob2ob
2ob2ob2ob2ob2ob2ob2ob2ob2ob2ob2ob2ob2ob2ob2ob2ob2ob2ob2ob2ob2ob2ob2ob
2ob2ob2ob2ob2ob2ob2ob2ob2ob2ob2ob2ob2ob2ob2ob2ob2ob2ob2ob2ob2ob2ob2ob
2ob2ob2ob2ob2ob2ob2ob2ob2ob2ob2ob2ob2ob2ob2ob2ob2ob2ob2ob2ob2ob2ob2ob
2ob2ob2ob2ob2ob2ob2ob2ob2ob2ob2ob2ob2ob2ob2ob2ob2ob2ob2ob2ob2ob2ob2ob
2ob2ob2ob2ob2ob2ob2ob2ob2ob2ob2ob2ob2ob2ob2ob2ob2ob2ob2ob2ob2ob2ob2ob
2ob2ob2ob2ob2ob2ob2ob2ob2ob2ob2ob2ob2ob2ob2ob2ob2ob2ob2ob2ob2ob2ob2ob
2ob2ob2ob2ob2ob2ob2ob2ob2ob2ob2ob2ob2ob2ob2ob2ob2ob2ob2ob2ob2ob2ob2ob
2o3b2o331b2o$2462b2o$2129b2o$2129b2o327b2o2b2o$2458b2o2b2o$2129b2o77b
2o$2129b2o75bo2bo14bo233b2o$2223b3o232b2o$2205bo16b2obo$2128b2o92b3o
229b2o2b2o$2128b2o76b2o7b2o6b2o229b2o2b2o$2208bo5bobo$2128b2o84bobob2o
34b2o198b2o$2128b2o85bobobo33b2o199b2o$2205b2o3b2o5bo37bo$2205b2o3b2o
3bo2bo231b2o2b2o$2126b2o78b5o7bo24b2o205b2o2b2o$2126b2o79bobo4bo3bo24b
obo$2218bo25b3o203b2o$2126b2o79b3o5bo2bo26b2o15bo187b2o$2126b2o89bo27b
2o10b2o2b2o$2215bobobo4bo6b2o10bobo10bobo2bobo182b2o2b2o$2214bobob2o3b
3o4bo2bo10bo13bo187b2o2b2o$2124b2o88bobo6bob2o6bo$2124b2o89b2o7b3o6bo
212b2o$2211bo12b2o5bobo7b2o3b2o198b2o$2124b2o86bo18bobo7b2o3b2o33bo$
2124b2o84b3o19bo35b2o2b2o6b4o155b2ob2o2b2o$2206bo36b3o3b3o11bobo2bob4o
5b2obobo154b2ob2o2b2o$2121b2o82b3o35b3o5bo9bo3bo3bob2o5b3obo2bo2b2o$
2121b2o81b5o20b2o3b2o8bo5bo10bo12bo4b2obobo3b2o$2203b2o3b2o19bo5bo18b
2o4bo4bo14b4o149b2ob2ob2o$2118b2o134b2o5bo19bo151b2ob2ob2o$2118b2o99bo
6b2o2bo3bo26bo3bo$2205bo11bobo5b2o4b3o29bobo$2115b2o88bo12b2o7bo199b2o
b2ob2o$2115b2o128b3o179b2ob2ob2o$2209bo12b2o21b3o$2210bo10bobo20bo3bo$
2113b2o94bo13bo197b2ob2ob2o$2113b2o128b2o3b2o171b2ob2ob2o$2230bo$2110b
2o94b2o3b2o15b2ob2o$2110b2o94b2o3b2o202b2ob2ob2o$2227bo5bo181b2ob2ob2o
$2208b3o3b3o$2108b2o98b3o5bo10b2obob2o$2108b2o99bo5bo193b2ob2ob2o$
2409b2ob2ob2o$2105b2o$2105b2o138b2o$2245b2o156b2ob2ob2o$2102b2o299b2ob
2ob2o$2102b2o106b3o$2210b3o$2099b2o108bo3bo15b2o166b2ob2ob2o$2099b2o
128b2o166b2ob2ob2o$2208b2o3b2o$2096b2o$2096b2o293b2ob2ob2o$2391b2ob2ob
2o$2093b2o$2093b2o$2385b2ob2ob2o$2090b2o293b2ob2ob2o$2090b2o2$2090b2o
119b2o166b2ob2ob2o$2090b2o119b2o166b2ob2ob2o2$2087b2o$2087b2o284b2ob2o
b2o$2373b2ob2ob2o$2084b2o$2084b2o$2080b2o285b2ob2ob2o$2080b2o285b2ob2o
b2o2$2077b2o$2077b2o3b2ob2ob2ob2ob2ob2ob2ob2ob2ob2ob2ob2ob2ob2ob2ob2ob
2ob2ob2ob2ob2ob2ob2ob2ob2ob2ob2ob2ob2ob2ob2ob2ob2ob2ob2ob2ob2ob2ob2ob
2ob2ob2ob2ob2ob2ob2ob2ob2ob2ob2ob2ob2ob2ob2ob2ob2ob2ob2ob2ob2ob2ob2ob
2ob2ob2ob2ob2ob2ob2ob2ob2ob2ob2ob2ob2ob2ob2ob2ob2ob2ob2ob2ob2ob2ob2ob
2ob2ob2ob2ob2ob2ob2ob2ob2ob2ob2o$2082b2ob2ob2ob2ob2ob2ob2ob2ob2ob2ob2o
b2ob2ob2ob2ob2ob2ob2ob2ob2ob2ob2ob2ob2ob2ob2ob2ob2ob2ob2ob2ob2ob2ob2ob
2ob2ob2ob2ob2ob2ob2ob2ob2ob2ob2ob2ob2ob2ob2ob2ob2ob2ob2ob2ob2ob2ob2ob
2ob2ob2ob2ob2ob2ob2ob2ob2ob2ob2ob2ob2ob2ob2ob2ob2ob2ob2ob2ob2ob2ob2ob
2ob2ob2ob2ob2ob2ob2ob2ob2ob2ob2ob2ob2ob2ob2ob2o!
